;This Gcode has been generated specifically for the LulzBot Mini
;Basic settings: Layer height: 0.38 Walls: 1 Fill: 20
;Filament Diameter: 2.85
;Nozzle Size: 0.5
G21                          ; metric values
G90                          ; absolute positioning
M82                          ; set extruder to absolute mode
M107                         ; start with the fan off
G92 E0                       ; set extruder position to 0
M140 S60; get bed heating up
G28                          ; home all
M109 S140                    ; set to cleaning temp and wait
G1 Z150 E-30 F75             ; suck up XXmm of filament
M109 S140                    ; heat up rest of way
G1 X45 Y174 F11520           ; move behind scraper
G1 Z0  F1200                 ; CRITICAL: set Z to height of top of scraper
G1 X45 Y174 Z-.5 F4000       ; wiping ; plunge into wipe pad
G1 X55 Y172 Z-.5 F4000       ; wiping
G1 X45 Y174 Z0 F4000         ; wiping
G1 X55 Y172 F4000            ; wiping
G1 X45 Y174 F4000            ; wiping
G1 X55 Y172 F4000            ; wiping
G1 X45 Y174 F4000            ; wiping
G1 X55 Y172 F4000            ; wiping
G1 X60 Y174 F4000            ; wiping
G1 X80 Y172 F4000            ; wiping
G1 X60 Y174 F4000            ; wiping
G1 X80 Y172 F4000            ; wiping
G1 X60 Y174 F4000            ; wiping
G1 X90 Y172 F4000            ; wiping
G1 X80 Y174 F4000            ; wiping
G1 X100 Y172 F4000           ; wiping
G1 X80 Y174 F4000            ; wiping
G1 X100 Y172 F4000           ; wiping
G1 X80 Y174 F4000            ; wiping
G1 X100 Y172 F4000           ; wiping
G1 X110 Y174 F4000           ; wiping
G1 X100 Y172 F4000           ; wiping
G1 X110 Y174 F4000           ; wiping
G1 X100 Y172 F4000           ; wiping
G1 X110 Y174 F4000           ; wiping
G1 X115 Y172 Z-0.5 F1000     ; wipe slower and bury noz in cleanish area
G1 Z10                       ; raise z
G28 X0 Y0                    ; home x and y
M109 S140                    ; set to probing temp
M204 S300                    ; Set probing acceleration
G29                          ; Probe
M204 S2000                   ; Restore standard acceleration
G1 X5 Y15 Z10 F5000          ; get out the way
G4 S1                        ; pause
M400                         ; clear buffer
M109 S205    ; set extruder temp and wait
G4 S15                       ; wait for bed to temp up
G1 Z2 E0 F75                 ; extrude filament back into nozzle
M140 S60; get bed temping up during first layer

;Layer count: 116
;LAYER:0
M107
G0 F10500 X25.289 Y19.315 Z0.425
;TYPE:SKIRT
G1 F900 X25.788 Y18.649 E0.03465
G1 X26.399 Y17.961 E0.07296
G1 X26.707 Y17.621 E0.09207
G1 X27.453 Y16.956 E0.13368
G1 X28.115 Y16.452 E0.16832
G1 X28.918 Y15.923 E0.20836
G1 X29.456 Y15.614 E0.23419
G1 X30.497 Y15.151 E0.28163
G1 X31.826 Y14.847 E0.33840
G1 X32.313 Y13.753 E0.38826
G1 X33.137 Y12.015 E0.46835
G1 X33.484 Y11.217 E0.50458
G1 X33.711 Y10.686 E0.52863
G1 X34.000 Y10.049 E0.55775
G1 X34.355 Y9.424 E0.58768
G1 X34.592 Y8.998 E0.60798
G1 X34.836 Y8.417 E0.63422
G1 X35.033 Y7.985 E0.65399
G1 X35.252 Y7.638 E0.67107
G1 X35.337 Y7.193 E0.68993
G1 X35.590 Y6.416 E0.72396
G1 X35.784 Y5.839 E0.74931
G1 X36.403 Y4.702 E0.80321
G1 X36.712 Y4.242 E0.82628
G1 X37.260 Y3.582 E0.86200
G1 X38.177 Y2.867 E0.91042
G1 X38.691 Y2.647 E0.93370
G1 X39.308 Y2.322 E0.96274
G1 X40.415 Y2.223 E1.00901
G1 X40.946 Y2.226 E1.03112
G1 X41.179 Y2.253 E1.04089
G1 X41.569 Y2.264 E1.05713
G1 X42.318 Y2.328 E1.08844
G1 X43.454 Y2.590 E1.13698
G1 X44.556 Y2.959 E1.18537
G1 X45.768 Y3.633 E1.24311
G1 X46.915 Y4.606 E1.30574
G1 X47.015 Y4.770 E1.31374
G1 X47.229 Y4.901 E1.32418
G1 X47.809 Y5.313 E1.35381
G1 X47.809 Y5.314 E1.35385
G1 X48.621 Y5.889 E1.39528
G1 X49.532 Y7.445 E1.47035
G1 X49.580 Y7.950 E1.49147
G1 X50.174 Y8.177 E1.51795
G1 X51.019 Y8.402 E1.55436
G1 X52.328 Y9.666 E1.63013
G1 X52.489 Y9.952 E1.64379
G1 X52.801 Y10.433 E1.66767
G1 X53.126 Y10.887 E1.69092
G1 X53.883 Y12.145 E1.75205
G1 X54.211 Y13.060 E1.79252
G1 X54.545 Y14.309 E1.84635
G1 X54.632 Y14.733 E1.86438
G1 X54.700 Y15.485 E1.89582
G1 X54.793 Y15.856 E1.91174
G1 X54.977 Y16.311 E1.93218
G1 X55.226 Y16.733 E1.95258
G1 X55.493 Y17.238 E1.97636
G1 X55.529 Y17.283 E1.97876
G1 X55.912 Y17.604 E1.99957
G1 X56.441 Y18.046 E2.02827
G1 X56.897 Y18.446 E2.05353
G1 X57.320 Y18.867 E2.07838
G1 X58.113 Y19.727 E2.12709
G1 X58.660 Y20.391 E2.16291
G1 X59.358 Y21.432 E2.21510
G1 X59.453 Y21.562 E2.22180
G1 X59.648 Y21.689 E2.23149
G1 X59.860 Y21.820 E2.24187
G1 X60.136 Y21.964 E2.25483
G1 X60.221 Y21.989 E2.25852
G1 X60.706 Y22.094 E2.27918
G1 X61.781 Y22.366 E2.32535
G1 X61.807 Y22.374 E2.32648
G1 X62.370 Y22.476 E2.35031
G1 X63.177 Y22.692 E2.38509
G1 X63.468 Y22.720 E2.39727
G1 X64.321 Y23.013 E2.43482
G1 X65.201 Y23.186 E2.47216
G1 X65.969 Y23.400 E2.50536
G1 X66.618 Y23.490 E2.53264
G1 X67.812 Y23.756 E2.58358
G1 X68.076 Y23.822 E2.59491
G1 X68.273 Y23.829 E2.60311
G1 X69.415 Y24.239 E2.65364
G1 X69.879 Y24.363 E2.67363
G1 X70.574 Y24.713 E2.70603
G1 X70.881 Y24.819 E2.71956
G1 X71.917 Y25.442 E2.76989
G1 X72.285 Y25.658 E2.78766
G1 X72.924 Y25.904 E2.81617
G1 X73.876 Y26.207 E2.85777
G1 X74.205 Y26.286 E2.87186
G1 X74.437 Y26.322 E2.88163
G1 X75.050 Y26.361 E2.90721
G1 X75.812 Y26.500 E2.93946
G1 X76.749 Y26.618 E2.97878
G1 X77.389 Y26.717 E3.00575
G1 X78.104 Y26.867 E3.03617
G1 X78.391 Y26.965 E3.04880
G1 X79.080 Y27.114 E3.07815
G1 X79.245 Y27.155 E3.08523
G1 X79.561 Y27.206 E3.09855
G1 X79.844 Y27.239 E3.11042
G1 X80.851 Y27.390 E3.15282
G1 X82.043 Y27.615 E3.20333
G1 X82.483 Y27.698 E3.22197
G1 X83.879 Y28.186 E3.28354
G1 X84.699 Y28.493 E3.32000
G1 X85.883 Y29.014 E3.37386
G1 X87.357 Y29.805 E3.44352
G1 X88.144 Y30.217 E3.48050
G1 X89.000 Y30.788 E3.52335
G1 X89.754 Y31.249 E3.56015
G1 X90.605 Y31.878 E3.60421
G1 X91.102 Y32.279 E3.63080
G1 X91.603 Y32.708 E3.65826
G1 X91.603 Y32.354 E3.67300
G1 X99.231 Y36.172 E4.02818
G1 X99.309 Y36.188 E4.03150
G1 X100.169 Y36.188 E4.06730
G1 X106.942 Y38.450 E4.36463
G1 X106.900 Y38.630 E4.37233
G1 X106.901 Y38.631 E4.37239
G1 X107.927 Y38.802 E4.41570
G1 X107.927 Y38.974 E4.42286
G1 X108.934 Y39.310 E4.46706
G1 X116.747 Y40.286 E4.79490
G1 X116.738 Y40.435 E4.80112
G1 X116.789 Y40.445 E4.80328
G1 X118.436 Y40.679 E4.87255
G1 X118.894 Y40.831 E4.89264
G1 X122.187 Y41.050 E5.03006
G1 X122.980 Y41.446 E5.06697
G1 X124.695 Y41.588 E5.13862
G1 X125.921 Y41.602 E5.18967
G1 X126.877 Y41.284 E5.23162
G1 X127.898 Y40.773 E5.27916
G1 X131.245 Y40.101 E5.42131
G1 X133.803 Y38.823 E5.54037
G1 X133.803 Y37.949 E5.57676
G1 X135.603 Y37.590 E5.65318
G1 X135.603 Y37.538 E5.65535
G1 X135.803 Y37.338 E5.66713
G1 X135.803 Y37.137 E5.67550
G1 X140.001 Y32.943 E5.92258
G1 X146.674 Y36.246 E6.23260
G1 X146.591 Y36.863 E6.25852
G1 X147.327 Y37.108 E6.29082
G1 X147.327 Y39.188 E6.37743
G1 X147.527 Y39.188 E6.38576
G1 X147.527 Y49.281 E6.80601
G1 X145.678 Y50.205 E6.89208
G1 X145.341 Y51.221 E6.93665
G1 X142.124 Y51.680 E7.07195
G1 X141.255 Y52.115 E7.11242
G1 X139.032 Y52.857 E7.21000
G1 X138.117 Y53.086 E7.24927
G1 X138.090 Y53.099 E7.25052
G1 X137.892 Y53.297 E7.26218
G1 X136.573 Y53.956 E7.32357
G1 X136.602 Y54.026 E7.32673
G1 X132.065 Y58.906 E7.60417
G1 X129.093 Y57.921 E7.73454
G1 X127.961 Y57.759 E7.78215
G1 X124.910 Y57.168 E7.91155
G1 X122.939 Y57.212 E7.99364
G1 X120.644 Y57.212 E8.08920
G1 X118.251 Y57.612 E8.19022
G1 X116.319 Y57.612 E8.27066
G1 X114.815 Y57.234 E8.33524
G1 X111.295 Y57.421 E8.48201
G1 X111.252 Y57.241 E8.48971
G1 X107.908 Y57.407 E8.62912
G1 X103.937 Y57.596 E8.79465
G1 X103.873 Y57.606 E8.79735
G1 X102.805 Y58.140 E8.84707
G1 X102.799 Y58.140 E8.84732
G1 X103.029 Y58.922 E8.88126
G1 X103.350 Y59.964 E8.92666
G1 X103.612 Y60.793 E8.96286
G1 X103.952 Y62.101 E9.01913
G1 X104.198 Y63.293 E9.06981
G1 X104.387 Y64.529 E9.12187
G1 X104.484 Y65.166 E9.14870
G1 X104.700 Y66.506 E9.20522
G1 X104.794 Y67.287 E9.23797
G1 X104.886 Y67.958 E9.26617
G1 X104.938 Y68.662 E9.29556
G1 X105.056 Y69.969 E9.35021
G1 X105.103 Y70.935 E9.39048
G1 X105.117 Y71.343 E9.40747
G1 X105.109 Y71.893 E9.43038
G1 X104.967 Y73.811 E9.51046
G1 X104.945 Y74.354 E9.53309
G1 X104.887 Y75.060 E9.56258
G1 X104.838 Y75.944 E9.59944
G1 X104.806 Y76.570 E9.62554
G1 X104.727 Y77.325 E9.65715
G1 X104.655 Y78.035 E9.68687
G1 X104.519 Y78.994 E9.72720
G1 X104.479 Y79.378 E9.74327
G1 X104.461 Y79.788 E9.76036
G1 X104.451 Y80.156 E9.77569
G1 X104.460 Y80.943 E9.80846
G1 X104.331 Y83.220 E9.90342
G1 X104.157 Y84.647 E9.96328
G1 X103.896 Y85.969 E10.01939
G1 X103.623 Y87.092 E10.06751
G1 X103.461 Y87.706 E10.09395
G1 X103.024 Y89.343 E10.16450
G1 X102.851 Y89.943 E10.19050
G1 X102.568 Y90.898 E10.23197
G1 X102.333 Y91.816 E10.27143
G1 X102.242 Y92.278 E10.29103
G1 X102.038 Y93.572 E10.34558
G1 X101.926 Y94.268 E10.37493
G1 X101.752 Y95.344 E10.42032
G1 X101.612 Y96.101 E10.45237
G1 X101.409 Y97.073 E10.49372
G1 X101.347 Y97.324 E10.50448
G1 X101.082 Y98.251 E10.54463
G1 X100.647 Y99.628 E10.60475
G1 X100.446 Y100.291 E10.63360
G1 X100.106 Y101.503 E10.68601
G1 X99.683 Y102.618 E10.73567
G1 X99.587 Y102.903 E10.74819
G1 X99.779 Y103.215 E10.76345
G1 X100.099 Y103.662 E10.78633
G1 X100.840 Y104.805 E10.84305
G1 X101.117 Y105.308 E10.86696
G1 X101.391 Y105.918 E10.89481
G1 X101.773 Y107.049 E10.94451
G1 X102.016 Y108.078 E10.98854
G1 X102.126 Y108.729 E11.01603
G1 X102.249 Y109.633 E11.05401
G1 X102.310 Y110.288 E11.08141
G1 X102.303 Y111.352 E11.12571
G1 X102.263 Y112.048 E11.15474
G1 X102.202 Y112.715 E11.18263
G1 X102.117 Y113.341 E11.20893
G1 X102.013 Y113.997 E11.23659
G1 X101.823 Y114.834 E11.27232
G1 X101.895 Y114.906 E11.27656
G1 X104.052 Y115.988 E11.37704
G1 X105.777 Y115.988 E11.44887
G1 X106.693 Y116.904 E11.50281
G1 X106.864 Y116.988 E11.51074
G1 X111.127 Y116.988 E11.68824
G1 X111.127 Y119.222 E11.78126
G1 X112.086 Y119.698 E11.82584
G1 X112.291 Y119.903 E11.83791
G1 X112.692 Y120.103 E11.85657
G1 X112.892 Y120.303 E11.86835
G1 X113.292 Y120.503 E11.88697
G1 X115.093 Y122.304 E11.99302
G1 X115.487 Y122.501 E12.01136
G1 X115.688 Y122.701 E12.02317
G1 X116.093 Y122.904 E12.04203
G1 X116.295 Y123.106 E12.05393
G1 X116.694 Y123.306 E12.07251
G1 X119.094 Y125.704 E12.21377
G1 X119.492 Y125.903 E12.23230
G1 X120.092 Y126.503 E12.26763
G1 X120.492 Y126.703 E12.28625
G1 X120.777 Y126.988 E12.30304
G1 X120.977 Y126.988 E12.31136
G1 X121.563 Y127.574 E12.34587
G1 X122.042 Y127.654 E12.36609
G1 X122.823 Y128.435 E12.41208
G1 X123.565 Y128.188 E12.44464
G1 X125.367 Y128.188 E12.51967
G1 X126.859 Y128.687 E12.58518
G1 X127.249 Y128.882 E12.60334
G1 X127.854 Y129.084 E12.62989
G1 X129.462 Y129.888 E12.70475
G1 X131.247 Y130.015 E12.77926
G1 X132.143 Y130.194 E12.81731
G1 X132.812 Y130.190 E12.84516
G1 X135.488 Y129.653 E12.95881
G1 X137.865 Y127.276 E13.09878
G1 X139.007 Y128.418 E13.16602
G1 X142.469 Y126.681 E13.32730
G1 X146.091 Y130.302 E13.54055
G1 X147.127 Y130.820 E13.58878
G1 X147.127 Y133.538 E13.70195
G1 X147.327 Y133.738 E13.71373
G1 X147.327 Y135.338 E13.78035
G1 X147.527 Y135.538 E13.79213
G1 X147.527 Y141.862 E14.05545
G1 X147.327 Y142.062 E14.06722
G1 X147.327 Y148.751 E14.34574
G1 X140.216 Y145.186 E14.67695
G1 X137.019 Y145.252 E14.81010
G1 X129.674 Y145.406 E15.11600
G1 X128.451 Y145.612 E15.16764
G1 X122.765 Y145.612 E15.40439
G1 X120.909 Y144.993 E15.48585
G1 X119.764 Y145.003 E15.53353
G1 X115.858 Y146.957 E15.71539
G1 X115.218 Y145.412 E15.78502
G1 X114.729 Y145.412 E15.80538
G1 X110.046 Y144.743 E16.00235
G1 X109.965 Y144.824 E16.00712
G1 X109.857 Y144.716 E16.01348
G1 X108.803 Y144.565 E16.05781
G1 X108.803 Y143.662 E16.09541
G1 X107.036 Y141.895 E16.19946
G1 X106.990 Y141.886 E16.20141
G1 X105.251 Y141.310 E16.27769
G1 X105.047 Y141.106 E16.28970
G1 X103.093 Y140.780 E16.37219
G1 X96.603 Y140.190 E16.64353
G1 X96.603 Y139.420 E16.67559
G1 X94.678 Y139.144 E16.75657
G1 X91.003 Y140.062 E16.91429
G1 X91.003 Y139.053 E16.95630
G1 X90.723 Y139.161 E16.96880
G1 X90.186 Y139.353 E16.99254
G1 X89.490 Y139.591 E17.02317
G1 X87.565 Y140.169 E17.10686
G1 X87.079 Y140.294 E17.12775
G1 X86.560 Y140.516 E17.15126
G1 X85.369 Y140.870 E17.20299
G1 X84.861 Y141.026 E17.22512
G1 X84.032 Y141.171 E17.26016
G1 X83.313 Y141.252 E17.29029
G1 X82.478 Y141.331 E17.32521
G1 X81.614 Y141.411 E17.36134
G1 X81.081 Y141.468 E17.38366
G1 X79.598 Y141.451 E17.44541
G1 X78.831 Y141.394 E17.47744
G1 X77.407 Y141.240 E17.53707
G1 X76.816 Y141.173 E17.56184
G1 X76.472 Y141.175 E17.57616
G1 X76.264 Y141.174 E17.58482
G1 X76.100 Y141.198 E17.59173
G1 X76.001 Y141.270 E17.59682
G1 X75.868 Y141.349 E17.60326
G1 X75.293 Y141.792 E17.63349
G1 X74.844 Y142.135 E17.65701
G1 X74.350 Y142.470 E17.68187
G1 X72.816 Y143.165 E17.75199
G1 X72.391 Y143.369 E17.77162
G1 X72.068 Y143.557 E17.78718
G1 X71.790 Y143.769 E17.80174
G1 X71.519 Y144.350 E17.82843
G1 X71.245 Y144.865 E17.85272
G1 X70.932 Y145.345 E17.87658
G1 X70.453 Y145.963 E17.90914
G1 X69.920 Y146.566 E17.94265
G1 X69.486 Y146.968 E17.96728
G1 X69.021 Y147.434 E17.99469
G1 X68.337 Y147.969 E18.03085
G1 X67.706 Y148.462 E18.06419
G1 X66.654 Y149.529 E18.12658
G1 X66.374 Y149.577 E18.13841
G1 X66.112 Y149.745 E18.15137
G1 X65.654 Y150.055 E18.17439
G1 X65.588 Y150.104 E18.17782
G1 X65.473 Y150.260 E18.18589
G1 X65.111 Y150.523 E18.20452
G1 X64.692 Y150.902 E18.22804
G1 X64.254 Y151.132 E18.24864
G1 X64.174 Y151.184 E18.25261
G1 X64.026 Y151.423 E18.26432
G1 X62.946 Y152.187 E18.31940
G1 X62.430 Y152.532 E18.34525
G1 X61.602 Y152.927 E18.38345
G1 X59.795 Y153.315 E18.46040
G1 X58.786 Y153.443 E18.50275
G1 X57.993 Y153.558 E18.53611
G1 X57.626 Y153.608 E18.55154
G1 X57.603 Y153.615 E18.55254
G1 X56.690 Y153.743 E18.59092
G1 X56.360 Y153.782 E18.60476
G1 X55.789 Y153.804 E18.62855
G1 X55.318 Y153.799 E18.64817
G1 X54.511 Y153.751 E18.68183
G1 X54.263 Y153.714 E18.69227
G1 X54.000 Y153.701 E18.70323
G1 X52.832 Y153.454 E18.75294
G1 X51.978 Y153.104 E18.79137
G1 X51.859 Y153.040 E18.79700
G1 X51.436 Y152.919 E18.81532
G1 X50.894 Y152.814 E18.83830
G1 X49.759 Y152.505 E18.88728
G1 X49.061 Y152.276 E18.91787
G1 X47.777 Y151.703 E18.97641
G1 X47.288 Y151.453 E18.99928
G1 X46.389 Y150.912 E19.04297
G1 X45.907 Y150.679 E19.06526
G1 X45.363 Y150.431 E19.09016
G1 X44.712 Y150.103 E19.12051
G1 X43.733 Y149.733 E19.16409
G1 X42.039 Y148.902 E19.24265
G1 X41.207 Y148.386 E19.28341
G1 X40.568 Y147.952 E19.31558
G1 X40.353 Y147.765 E19.32744
G1 X39.817 Y147.363 E19.35534
G1 X39.001 Y146.583 E19.40234
G1 X38.690 Y146.314 E19.41946
G1 X37.539 Y144.968 E19.49320
G1 X36.574 Y143.713 E19.55912
G1 X36.204 Y143.247 E19.58390
G1 X36.108 Y143.139 E19.58991
G1 X35.939 Y143.023 E19.59845
G1 X35.836 Y142.914 E19.60469
G1 X35.551 Y142.702 E19.61948
G1 X35.365 Y142.467 E19.63196
G1 X34.897 Y142.004 E19.65937
G1 X34.069 Y140.792 E19.72049
G1 X33.725 Y139.843 E19.76252
G1 X33.504 Y139.287 E19.78743
G1 X33.275 Y138.744 E19.81197
G1 X33.097 Y138.206 E19.83557
G1 X32.877 Y137.660 E19.86008
G1 X32.574 Y136.797 E19.89816
G1 X32.155 Y135.599 E19.95101
G1 X31.710 Y134.102 E20.01603
G1 X31.732 Y133.907 E20.02421
G1 X31.689 Y133.698 E20.03309
G1 X31.514 Y132.718 E20.07454
G1 X31.371 Y131.234 E20.13662
G1 X31.295 Y130.235 E20.17833
G1 X31.276 Y129.824 E20.19547
G1 X31.295 Y128.674 E20.24336
G1 X31.333 Y127.889 E20.27608
G1 X31.435 Y126.671 E20.32697
G1 X31.581 Y125.718 E20.36712
G1 X31.884 Y124.204 E20.43141
G1 X32.251 Y122.982 E20.48453
G1 X32.651 Y121.822 E20.53562
G1 X33.135 Y120.688 E20.58696
G1 X33.553 Y119.810 E20.62745
G1 X34.312 Y118.443 E20.69256
G1 X34.729 Y117.753 E20.72613
G1 X35.236 Y116.972 E20.76490
G1 X35.863 Y116.137 E20.80837
G1 X36.664 Y115.078 E20.86366
G1 X37.726 Y113.995 E20.92682
G1 X38.187 Y113.567 E20.95301
G1 X38.811 Y113.076 E20.98607
G1 X39.312 Y112.715 E21.01178
G1 X39.666 Y112.455 E21.03007
G1 X40.437 Y111.986 E21.06765
G1 X41.754 Y111.324 E21.12902
G1 X42.433 Y111.050 E21.15951
G1 X43.154 Y110.770 E21.19172
G1 X44.064 Y110.486 E21.23141
G1 X44.987 Y110.242 E21.27116
G1 X45.887 Y110.071 E21.30931
G1 X46.736 Y109.986 E21.34483
G1 X47.667 Y109.883 E21.38383
G1 X48.363 Y109.832 E21.41289
G1 X49.445 Y109.769 E21.45802
G1 X50.012 Y109.742 E21.48166
G1 X51.101 Y109.674 E21.52709
G1 X51.494 Y109.629 E21.54356
G1 X51.819 Y109.577 E21.55726
G1 X51.540 Y108.484 E21.60423
G1 X51.377 Y107.754 E21.63538
G1 X51.208 Y106.569 E21.68522
G1 X51.101 Y105.743 E21.71990
G1 X51.028 Y105.144 E21.74502
G1 X51.019 Y104.481 E21.77263
G1 X50.997 Y104.117 E21.78782
G1 X51.003 Y103.800 E21.80102
G1 X50.958 Y103.585 E21.81016
G1 X50.984 Y102.879 E21.83958
G1 X50.953 Y101.937 E21.87882
G1 X50.961 Y100.918 E21.92125
G1 X50.977 Y100.246 E21.94924
G1 X50.987 Y99.581 E21.97694
G1 X51.025 Y99.342 E21.98701
G1 X51.032 Y99.070 E21.99834
G1 X51.016 Y98.386 E22.02683
G1 X51.027 Y97.502 E22.06364
G1 X51.058 Y97.107 E22.08014
G1 X51.075 Y96.610 E22.10084
G1 X51.072 Y96.489 E22.10588
G1 X51.081 Y96.148 E22.12009
G1 X51.114 Y95.776 E22.13564
G1 X51.147 Y94.618 E22.18387
G1 X51.213 Y93.505 E22.23030
G1 X51.299 Y92.236 E22.28326
G1 X51.260 Y91.520 E22.31311
G1 X51.261 Y90.960 E22.33643
G1 X51.155 Y89.833 E22.38357
G1 X51.117 Y89.549 E22.39550
G1 X51.050 Y89.248 E22.40834
G1 X51.024 Y88.308 E22.44749
G1 X50.920 Y87.930 E22.46381
G1 X50.951 Y87.488 E22.48226
G1 X50.950 Y87.451 E22.48380
G1 X50.974 Y86.739 E22.51347
G1 X50.952 Y86.239 E22.53431
G1 X50.950 Y85.897 E22.54855
G1 X50.992 Y85.206 E22.57737
G1 X51.157 Y83.681 E22.64124
G1 X51.214 Y83.377 E22.65412
G1 X51.227 Y83.220 E22.66068
G1 X51.225 Y82.858 E22.67575
G1 X51.239 Y82.727 E22.68124
G1 X51.223 Y82.446 E22.69296
G1 X51.279 Y82.067 E22.70891
G1 X51.279 Y82.055 E22.70941
G1 X51.271 Y81.844 E22.71820
G1 X51.297 Y80.903 E22.75740
G1 X51.279 Y80.323 E22.78156
G1 X51.244 Y80.003 E22.79496
G1 X51.228 Y79.632 E22.81042
G1 X51.119 Y79.026 E22.83606
G1 X51.058 Y78.811 E22.84537
G1 X51.043 Y78.659 E22.85173
G1 X51.039 Y78.641 E22.85249
G1 X50.860 Y78.184 E22.87293
G1 X50.736 Y77.798 E22.88981
G1 X50.459 Y77.152 E22.91908
G1 X50.441 Y77.073 E22.92245
G1 X50.402 Y77.003 E22.92579
G1 X50.030 Y76.087 E22.96695
G1 X50.000 Y75.987 E22.97130
G1 X49.872 Y75.723 E22.98352
G1 X49.436 Y74.643 E23.03201
G1 X49.403 Y74.545 E23.03632
G1 X49.325 Y74.369 E23.04433
G1 X49.197 Y74.137 E23.05537
G1 X48.482 Y73.003 E23.11119
G1 X48.052 Y72.237 E23.14776
G1 X47.668 Y71.414 E23.18558
G1 X47.301 Y70.466 E23.22790
G1 X47.016 Y69.534 E23.26848
G1 X46.865 Y68.852 E23.29757
G1 X46.743 Y68.247 E23.32327
G1 X46.544 Y66.465 E23.39793
G1 X46.401 Y65.201 E23.45089
G1 X46.285 Y64.681 E23.47308
G1 X46.250 Y64.594 E23.47698
G1 X46.196 Y64.515 E23.48097
G1 X46.041 Y64.325 E23.49118
G1 X45.708 Y64.014 E23.51015
G1 X45.561 Y63.880 E23.51843
G1 X45.247 Y63.657 E23.53447
G1 X44.482 Y63.198 E23.57161
G1 X43.680 Y62.684 E23.61128
G1 X42.937 Y62.152 E23.64933
G1 X42.317 Y61.727 E23.68063
G1 X40.770 Y60.568 E23.76111
G1 X40.630 Y60.425 E23.76944
G1 X40.299 Y60.175 E23.78672
G1 X40.202 Y60.097 E23.79190
G1 X40.177 Y60.083 E23.79309
G1 X40.044 Y59.998 E23.79966
G1 X39.476 Y59.768 E23.82518
G1 X38.318 Y59.282 E23.87747
G1 X37.460 Y58.898 E23.91661
G1 X36.620 Y58.478 E23.95571
G1 X35.916 Y58.066 E23.98968
G1 X34.228 Y56.981 E24.07323
G1 X33.645 Y56.612 E24.10196
G1 X32.569 Y55.963 E24.15428
G1 X32.028 Y55.666 E24.17998
G1 X31.353 Y55.225 E24.21355
G1 X30.155 Y54.442 E24.27314
G1 X29.374 Y53.864 E24.31360
G1 X28.569 Y53.242 E24.35596
G1 X28.034 Y52.853 E24.38350
G1 X26.794 Y51.833 E24.45035
G1 X25.460 Y50.627 E24.52523
G1 X24.271 Y49.388 E24.59673
G1 X22.700 Y47.583 E24.69637
G1 X22.211 Y46.868 E24.73244
G1 X21.613 Y45.935 E24.77858
G1 X21.287 Y45.377 E24.80549
G1 X20.795 Y44.258 E24.85639
G1 X20.374 Y42.935 E24.91420
G1 X19.872 Y41.082 E24.99413
G1 X19.622 Y40.269 E25.02955
G1 X19.384 Y39.246 E25.07328
G1 X19.263 Y38.434 E25.10746
G1 X19.181 Y37.605 E25.14215
G1 X19.028 Y36.178 E25.20191
G1 X18.923 Y34.531 E25.27063
G1 X18.922 Y34.133 E25.28720
G1 X18.961 Y32.768 E25.34406
G1 X18.972 Y32.329 E25.36234
G1 X19.022 Y31.488 E25.39742
G1 X19.088 Y30.975 E25.41896
G1 X19.535 Y29.534 E25.48178
G1 X19.762 Y29.052 E25.50396
G1 X19.814 Y28.926 E25.50964
G1 X19.919 Y28.562 E25.52541
G1 X20.142 Y27.863 E25.55596
G1 X20.477 Y26.926 E25.59739
G1 X20.864 Y26.142 E25.63380
G1 X21.306 Y25.442 E25.66827
G1 X21.654 Y24.839 E25.69726
G1 X21.707 Y24.743 E25.70183
G1 X21.947 Y24.206 E25.72632
G1 X22.350 Y23.431 E25.76269
G1 X22.585 Y23.054 E25.78119
G1 X23.306 Y22.099 E25.83101
G1 X23.970 Y21.246 E25.87602
G1 X24.651 Y20.208 E25.92771
G1 X25.289 Y19.315 E25.97341
G1 F600 E24.47341
G1 Z0.525
G0 F10500 X28.712 Y21.832
;TYPE:WALL-INNER
G1 Z0.425
G1 F600 E25.97341
G1 F900 X29.082 Y21.339 E25.99907
G1 X29.564 Y20.796 E26.02931
G1 X29.699 Y20.646 E26.03771
G1 X30.153 Y20.242 E26.06301
G1 X30.578 Y19.918 E26.08526
G1 X31.149 Y19.542 E26.11373
G1 X31.390 Y19.403 E26.12532
G1 X31.846 Y19.201 E26.14608
G1 X33.078 Y18.919 E26.19871
G1 X33.650 Y18.750 E26.22354
G1 X33.976 Y18.629 E26.23802
G1 X34.402 Y18.350 E26.25922
G1 X34.736 Y18.055 E26.27778
G1 X35.142 Y17.577 E26.30389
G1 X35.558 Y16.910 E26.33662
G1 X36.170 Y15.537 E26.39921
G1 X37.008 Y13.767 E26.48076
G1 X37.391 Y12.887 E26.52072
G1 X37.595 Y12.409 E26.54236
G1 X37.791 Y11.979 E26.56203
G1 X38.053 Y11.517 E26.58415
G1 X38.418 Y10.861 E26.61541
G1 X38.735 Y10.109 E26.64939
G1 X38.779 Y10.011 E26.65386
G1 X39.204 Y9.336 E26.68707
G1 X39.256 Y9.155 E26.69491
G1 X39.303 Y9.078 E26.69867
G1 X39.459 Y8.256 E26.73351
G1 X39.622 Y7.756 E26.75540
G1 X39.693 Y7.546 E26.76463
G1 X40.038 Y6.911 E26.79472
G1 X40.236 Y6.649 E26.80840
G1 X40.354 Y6.557 E26.81463
G1 X40.534 Y6.478 E26.82281
G1 X40.590 Y6.473 E26.82515
G1 X40.690 Y6.474 E26.82932
G1 X40.881 Y6.496 E26.83732
G1 X41.328 Y6.508 E26.85594
G1 X41.661 Y6.537 E26.86986
G1 X42.292 Y6.682 E26.89682
G1 X42.838 Y6.865 E26.92080
G1 X43.340 Y7.144 E26.94471
G1 X43.640 Y7.399 E26.96110
G1 X43.705 Y7.506 E26.96632
G1 X43.831 Y7.613 E26.97320
G1 X44.302 Y8.172 E27.00364
G1 X44.569 Y8.256 E27.01529
G1 X45.346 Y8.776 E27.05422
G1 X45.393 Y8.809 E27.05661
G1 X45.459 Y9.508 E27.08585
G1 X45.602 Y10.049 E27.10915
G1 X45.756 Y10.495 E27.12879
G1 X45.989 Y10.901 E27.14828
G1 X46.387 Y11.428 E27.17578
G1 X46.833 Y11.821 E27.20053
G1 X47.122 Y11.958 E27.21385
G1 X47.567 Y12.108 E27.23340
G1 X47.859 Y12.114 E27.24556
G1 X48.701 Y12.162 E27.28068
G1 X48.858 Y12.222 E27.28768
G1 X48.929 Y12.291 E27.29180
G1 X48.948 Y12.324 E27.29339
G1 X48.994 Y12.372 E27.29615
G1 X49.293 Y12.833 E27.31903
G1 X49.575 Y13.227 E27.33921
G1 X50.026 Y13.975 E27.37558
G1 X50.152 Y14.329 E27.39122
G1 X50.406 Y15.278 E27.43213
G1 X50.497 Y16.198 E27.47062
G1 X50.695 Y16.981 E27.50425
G1 X50.754 Y17.200 E27.51369
G1 X51.048 Y17.929 E27.54642
G1 X51.124 Y18.142 E27.55584
G1 X51.518 Y18.811 E27.58817
G1 X51.739 Y19.228 E27.60782
G1 X51.847 Y19.481 E27.61927
G1 X52.473 Y20.266 E27.66108
G1 X53.189 Y20.866 E27.69997
G1 X53.667 Y21.265 E27.72590
G1 X54.258 Y21.814 E27.75949
G1 X54.907 Y22.517 E27.79933
G1 X55.248 Y22.932 E27.82169
G1 X55.868 Y23.857 E27.86806
G1 X56.304 Y24.438 E27.89830
G1 X56.532 Y24.667 E27.91176
G1 X56.827 Y24.923 E27.92802
G1 X57.357 Y25.268 E27.95435
G1 X57.759 Y25.517 E27.97404
G1 X58.360 Y25.829 E28.00224
G1 X58.587 Y25.937 E28.01270
G1 X59.186 Y26.113 E28.03870
G1 X59.752 Y26.235 E28.06281
G1 X60.663 Y26.466 E28.10194
G1 X60.824 Y26.513 E28.10892
G1 X61.443 Y26.626 E28.13512
G1 X62.418 Y26.887 E28.17715
G1 X62.563 Y26.901 E28.18322
G1 X63.096 Y27.084 E28.20668
G1 X63.190 Y27.121 E28.21089
G1 X64.213 Y27.322 E28.25430
G1 X65.100 Y27.568 E28.29262
G1 X65.856 Y27.674 E28.32441
G1 X66.848 Y27.895 E28.36673
G1 X67.416 Y28.037 E28.39111
G1 X68.142 Y28.297 E28.42322
G1 X68.360 Y28.355 E28.43261
G1 X68.921 Y28.637 E28.45875
G1 X69.072 Y28.690 E28.46542
G1 X69.760 Y29.103 E28.49883
G1 X70.232 Y29.380 E28.52162
G1 X70.449 Y29.505 E28.53204
G1 X71.513 Y29.914 E28.57951
G1 X72.578 Y30.253 E28.62604
G1 X72.718 Y30.298 E28.63217
G1 X73.385 Y30.458 E28.66073
G1 X73.967 Y30.549 E28.68525
G1 X74.529 Y30.585 E28.70870
G1 X75.179 Y30.704 E28.73622
G1 X76.169 Y30.827 E28.77776
G1 X76.977 Y30.972 E28.81194
G1 X77.252 Y31.066 E28.82404
G1 X78.118 Y31.253 E28.86093
G1 X78.402 Y31.324 E28.87312
G1 X78.969 Y31.414 E28.89702
G1 X80.143 Y31.581 E28.94640
G1 X81.253 Y31.790 E28.99343
G1 X81.380 Y31.814 E28.99881
G1 X82.442 Y32.185 E29.04565
G1 X83.087 Y32.427 E29.07433
G1 X84.019 Y32.837 E29.11673
G1 X85.381 Y33.567 E29.18107
G1 X85.977 Y33.879 E29.20908
G1 X86.714 Y34.371 E29.24598
G1 X87.387 Y34.783 E29.27883
G1 X87.993 Y35.231 E29.31021
G1 X89.374 Y36.394 E29.38539
G1 X90.189 Y37.174 E29.43236
G1 X90.931 Y37.927 E29.47638
G1 X91.307 Y38.315 E29.49888
G1 X91.800 Y38.830 E29.52856
G1 X92.457 Y39.585 E29.57023
G1 X92.984 Y40.272 E29.60629
G1 X93.617 Y41.161 E29.65173
G1 X93.989 Y41.693 E29.67876
G1 X94.519 Y42.432 E29.71662
G1 X95.029 Y43.169 E29.75394
G1 X95.517 Y43.967 E29.79289
G1 X95.835 Y44.572 E29.82135
G1 X96.096 Y45.170 E29.84852
G1 X96.253 Y45.612 E29.86805
G1 X96.426 Y46.263 E29.89609
G1 X96.627 Y47.270 E29.93885
G1 X96.956 Y49.334 E30.02587
G1 X97.194 Y51.166 E30.10280
G1 X97.463 Y53.402 E30.19657
G1 X97.672 Y54.624 E30.24819
G1 X97.862 Y55.470 E30.28429
G1 X97.980 Y56.047 E30.30882
G1 X98.209 Y57.277 E30.36091
G1 X98.460 Y58.410 E30.40923
G1 X98.701 Y59.263 E30.44614
G1 X98.967 Y60.168 E30.48541
G1 X99.298 Y61.241 E30.53217
G1 X99.525 Y61.959 E30.56352
G1 X99.810 Y63.056 E30.61072
G1 X100.016 Y64.057 E30.65327
G1 X100.187 Y65.168 E30.70007
G1 X100.288 Y65.839 E30.72833
G1 X100.493 Y67.105 E30.78173
G1 X100.584 Y67.859 E30.81335
G1 X100.660 Y68.408 E30.83643
G1 X100.705 Y69.036 E30.86264
G1 X100.815 Y70.246 E30.91323
G1 X100.858 Y71.117 E30.94955
G1 X100.867 Y71.362 E30.95975
G1 X100.862 Y71.716 E30.97449
G1 X100.725 Y73.558 E31.05140
G1 X100.705 Y74.070 E31.07274
G1 X100.648 Y74.754 E31.10132
G1 X100.595 Y75.711 E31.14123
G1 X100.568 Y76.241 E31.16332
G1 X100.501 Y76.883 E31.19020
G1 X100.439 Y77.503 E31.21614
G1 X100.303 Y78.460 E31.25639
G1 X100.239 Y79.075 E31.28214
G1 X100.214 Y79.663 E31.30664
G1 X100.201 Y80.122 E31.32576
G1 X100.210 Y80.856 E31.35633
G1 X100.097 Y82.837 E31.43895
G1 X99.958 Y83.981 E31.48693
G1 X99.745 Y85.060 E31.53272
G1 X99.508 Y86.037 E31.57458
G1 X99.354 Y86.615 E31.59949
G1 X98.933 Y88.196 E31.66761
G1 X98.774 Y88.747 E31.69149
G1 X98.478 Y89.746 E31.73488
G1 X98.186 Y90.885 E31.78384
G1 X98.059 Y91.529 E31.81117
G1 X97.842 Y92.901 E31.86900
G1 X97.731 Y93.591 E31.89810
G1 X97.563 Y94.629 E31.94189
G1 X97.445 Y95.270 E31.96902
G1 X97.269 Y96.114 E32.00492
G1 X97.009 Y97.039 E32.04493
G1 X96.582 Y98.391 E32.10397
G1 X96.366 Y99.103 E32.13495
G1 X96.066 Y100.173 E32.18122
G1 X95.681 Y101.189 E32.22646
G1 X95.466 Y101.826 E32.25445
G1 X95.324 Y102.349 E32.27702
G1 X95.234 Y102.906 E32.30051
G1 X95.263 Y103.472 E32.32411
G1 X95.369 Y103.974 E32.34547
G1 X95.602 Y104.456 E32.36776
G1 X95.643 Y104.601 E32.37404
G1 X96.240 Y105.570 E32.42143
G1 X96.585 Y106.052 E32.44611
G1 X97.193 Y106.990 E32.49265
G1 X97.430 Y107.468 E32.51486
G1 X97.684 Y108.221 E32.54795
G1 X97.848 Y108.919 E32.57781
G1 X98.025 Y110.095 E32.62733
G1 X98.060 Y110.471 E32.64305
G1 X98.055 Y111.225 E32.67445
G1 X97.981 Y112.216 E32.71582
G1 X97.911 Y112.734 E32.73759
G1 X97.841 Y113.180 E32.75639
G1 X97.658 Y113.984 E32.79072
G1 X97.319 Y115.106 E32.83952
G1 X97.083 Y115.850 E32.87202
G1 X96.661 Y116.972 E32.92194
G1 X96.443 Y117.462 E32.94427
G1 X96.163 Y117.990 E32.96915
G1 X95.749 Y118.758 E33.00548
G1 X95.562 Y119.347 E33.03121
G1 X95.486 Y120.398 E33.07509
G1 X95.243 Y121.057 E33.10433
G1 X95.098 Y121.485 E33.12315
G1 X95.060 Y121.880 E33.13967
G1 X95.050 Y122.342 E33.15891
G1 X95.125 Y122.708 E33.17447
G1 X95.168 Y123.209 E33.19540
G1 X95.180 Y123.295 E33.19902
G1 X95.170 Y123.540 E33.20923
G1 X95.038 Y124.079 E33.23234
G1 X94.898 Y124.618 E33.25552
G1 X94.827 Y125.027 E33.27281
G1 X94.630 Y125.571 E33.29690
G1 X94.432 Y126.206 E33.32459
G1 X94.392 Y126.499 E33.33691
G1 X94.383 Y126.815 E33.35007
G1 X94.397 Y127.238 E33.36769
G1 X94.447 Y127.706 E33.38729
G1 X94.567 Y128.310 E33.41293
G1 X94.652 Y128.644 E33.42728
G1 X94.684 Y128.867 E33.43666
G1 X94.653 Y129.317 E33.45544
G1 X94.626 Y129.488 E33.46265
G1 X94.524 Y130.521 E33.50587
G1 X94.403 Y130.963 E33.52495
G1 X94.095 Y131.529 E33.55178
G1 X93.274 Y132.592 E33.60771
G1 X93.146 Y132.720 E33.61525
G1 X92.142 Y133.444 E33.66679
G1 X91.691 Y133.813 E33.69105
G1 X91.364 Y134.092 E33.70895
G1 X90.978 Y134.337 E33.72799
G1 X90.163 Y134.762 E33.76626
G1 X89.704 Y134.999 E33.78777
G1 X88.779 Y135.343 E33.82886
G1 X88.176 Y135.549 E33.85539
G1 X86.443 Y136.070 E33.93074
G1 X85.707 Y136.259 E33.96238
G1 X85.115 Y136.513 E33.98920
G1 X84.125 Y136.807 E34.03220
G1 X83.866 Y136.887 E34.04349
G1 X82.876 Y137.026 E34.08512
G1 X82.084 Y137.100 E34.11824
G1 X81.192 Y137.183 E34.15554
G1 X80.877 Y137.216 E34.16873
G1 X79.772 Y137.203 E34.21474
G1 X79.232 Y137.163 E34.23729
G1 X77.872 Y137.016 E34.29424
G1 X77.043 Y136.923 E34.32898
G1 X76.469 Y136.926 E34.35288
G1 X75.964 Y136.924 E34.37391
G1 X74.980 Y137.068 E34.41531
G1 X74.269 Y137.341 E34.44703
G1 X73.991 Y137.478 E34.45993
G1 X73.660 Y137.719 E34.47698
G1 X73.477 Y137.827 E34.48583
G1 X72.708 Y138.420 E34.52626
G1 X72.261 Y138.752 E34.54944
G1 X70.983 Y139.331 E34.60786
G1 X70.411 Y139.607 E34.63431
G1 X69.701 Y140.019 E34.66849
G1 X69.109 Y140.468 E34.69943
G1 X68.492 Y141.000 E34.73335
G1 X68.110 Y141.503 E34.75965
G1 X67.984 Y141.874 E34.77596
G1 X67.714 Y142.455 E34.80264
G1 X67.466 Y142.881 E34.82316
G1 X67.183 Y143.247 E34.84243
G1 X66.874 Y143.596 E34.86183
G1 X66.197 Y144.249 E34.90100
G1 X64.638 Y145.468 E34.98340
G1 X64.582 Y145.571 E34.98828
G1 X64.453 Y145.593 E34.99373
G1 X64.182 Y145.920 E35.01141
G1 X64.131 Y145.967 E35.01430
G1 X63.063 Y146.678 E35.06772
G1 X63.020 Y146.719 E35.07020
G1 X62.544 Y147.076 E35.09497
G1 X62.448 Y147.205 E35.10167
G1 X62.239 Y147.391 E35.11332
G1 X62.093 Y147.468 E35.12019
G1 X61.621 Y147.777 E35.14368
G1 X61.389 Y147.940 E35.15549
G1 X60.879 Y148.436 E35.18511
G1 X60.869 Y148.451 E35.18586
G1 X60.328 Y148.827 E35.21329
G1 X60.222 Y148.877 E35.21817
G1 X59.074 Y149.124 E35.26707
G1 X58.185 Y149.237 E35.30438
G1 X57.397 Y149.351 E35.33753
G1 X56.723 Y149.442 E35.36585
G1 X56.149 Y149.528 E35.39002
G1 X55.735 Y149.554 E35.40729
G1 X54.961 Y149.522 E35.43955
G1 X54.682 Y149.480 E35.45129
G1 X54.546 Y149.474 E35.45696
G1 X54.088 Y149.377 E35.47645
G1 X53.348 Y149.047 E35.51019
G1 X52.431 Y148.784 E35.54991
G1 X51.855 Y148.672 E35.57435
G1 X50.984 Y148.435 E35.61193
G1 X50.594 Y148.307 E35.62902
G1 X49.610 Y147.868 E35.67389
G1 X48.412 Y147.171 E35.73160
G1 X47.709 Y146.831 E35.76411
G1 X47.207 Y146.602 E35.78709
G1 X46.431 Y146.211 E35.82327
G1 X45.426 Y145.831 E35.86800
G1 X44.100 Y145.180 E35.92951
G1 X43.522 Y144.822 E35.95782
G1 X43.160 Y144.576 E35.97604
G1 X42.575 Y144.121 E36.00690
G1 X41.864 Y143.442 E36.04784
G1 X41.712 Y143.310 E36.05622
G1 X40.842 Y142.293 E36.11195
G1 X39.907 Y141.078 E36.17578
G1 X39.458 Y140.511 E36.20590
G1 X38.937 Y139.925 E36.23855
G1 X38.720 Y139.778 E36.24946
G1 X38.676 Y139.730 E36.25217
G1 X38.527 Y139.619 E36.25991
G1 X38.175 Y139.270 E36.28055
G1 X37.880 Y138.837 E36.30236
G1 X37.695 Y138.328 E36.32491
G1 X37.435 Y137.672 E36.35430
G1 X37.256 Y137.249 E36.37342
G1 X37.084 Y136.730 E36.39619
G1 X36.856 Y136.165 E36.42156
G1 X36.583 Y135.389 E36.45581
G1 X36.199 Y134.293 E36.50416
G1 X36.028 Y133.718 E36.52914
G1 X35.860 Y132.889 E36.56436
G1 X35.728 Y132.151 E36.59558
G1 X35.604 Y130.859 E36.64962
G1 X35.537 Y129.986 E36.68608
G1 X35.526 Y129.763 E36.69537
G1 X35.543 Y128.797 E36.73560
G1 X35.572 Y128.185 E36.76111
G1 X35.658 Y127.160 E36.80394
G1 X35.762 Y126.478 E36.83267
G1 X36.013 Y125.227 E36.88579
G1 X36.290 Y124.304 E36.92592
G1 X36.618 Y123.353 E36.96781
G1 X37.011 Y122.431 E37.00954
G1 X37.334 Y121.754 E37.04077
G1 X37.980 Y120.589 E37.09624
G1 X38.338 Y119.997 E37.12504
G1 X38.720 Y119.410 E37.15421
G1 X39.258 Y118.692 E37.19156
G1 X39.886 Y117.861 E37.23493
G1 X40.691 Y117.041 E37.28278
G1 X40.954 Y116.796 E37.29775
G1 X41.353 Y116.482 E37.31889
G1 X41.802 Y116.158 E37.34194
G1 X42.029 Y115.991 E37.35368
G1 X42.504 Y115.702 E37.37683
G1 X43.503 Y115.200 E37.42338
G1 X44.004 Y114.998 E37.44587
G1 X44.552 Y114.785 E37.47035
G1 X45.238 Y114.571 E37.50027
G1 X45.925 Y114.389 E37.52987
G1 X46.506 Y114.279 E37.55449
G1 X47.197 Y114.210 E37.58340
G1 X48.060 Y114.114 E37.61956
G1 X48.637 Y114.072 E37.64365
G1 X49.664 Y114.012 E37.68648
G1 X50.269 Y113.984 E37.71170
G1 X51.469 Y113.909 E37.76176
G1 X52.060 Y113.841 E37.78653
G1 X52.753 Y113.729 E37.81576
G1 X53.074 Y113.670 E37.82935
G1 X53.766 Y113.451 E37.85957
G1 X53.876 Y113.410 E37.86446
G1 X54.409 Y113.129 E37.88955
G1 X54.756 Y112.865 E37.90770
G1 X55.582 Y111.940 E37.95934
G1 X55.930 Y111.390 E37.98644
G1 X56.143 Y110.829 E38.01143
G1 X56.201 Y110.448 E38.02747
G1 X56.215 Y110.201 E38.03777
G1 X56.112 Y109.217 E38.07897
G1 X55.677 Y107.510 E38.15232
G1 X55.561 Y106.990 E38.17450
G1 X55.418 Y105.989 E38.21660
G1 X55.316 Y105.207 E38.24944
G1 X55.273 Y104.859 E38.26404
G1 X55.267 Y104.329 E38.28611
G1 X55.249 Y104.034 E38.29842
G1 X55.261 Y103.396 E38.32499
G1 X55.223 Y103.218 E38.33256
G1 X55.236 Y102.893 E38.34611
G1 X55.202 Y101.904 E38.38731
G1 X55.210 Y100.993 E38.42525
G1 X55.226 Y100.311 E38.45365
G1 X55.231 Y99.946 E38.46885
G1 X55.278 Y99.652 E38.48125
G1 X55.273 Y99.449 E38.48970
G1 X55.282 Y99.083 E38.50495
G1 X55.265 Y98.345 E38.53568
G1 X55.274 Y97.692 E38.56288
G1 X55.301 Y97.347 E38.57728
G1 X55.325 Y96.640 E38.60674
G1 X55.322 Y96.500 E38.61257
G1 X55.371 Y95.865 E38.63909
G1 X55.364 Y95.808 E38.64148
G1 X55.393 Y94.790 E38.68388
G1 X55.453 Y93.778 E38.72610
G1 X55.556 Y92.261 E38.78941
G1 X55.509 Y91.400 E38.82531
G1 X55.510 Y90.760 E38.85196
G1 X55.378 Y89.354 E38.91076
G1 X55.304 Y88.803 E38.93391
G1 X55.287 Y88.723 E38.93731
G1 X55.260 Y87.779 E38.97663
G1 X55.228 Y87.572 E38.98536
G1 X55.203 Y87.481 E38.98929
G1 X55.201 Y87.437 E38.99112
G1 X55.226 Y86.716 E39.02116
G1 X55.201 Y86.140 E39.04516
G1 X55.200 Y86.006 E39.05074
G1 X55.365 Y84.295 E39.12232
G1 X55.465 Y83.761 E39.14494
G1 X55.457 Y83.619 E39.15086
G1 X55.477 Y83.395 E39.16022
G1 X55.475 Y83.080 E39.17334
G1 X55.502 Y82.842 E39.18331
G1 X55.490 Y82.637 E39.19186
G1 X55.517 Y82.454 E39.19957
G1 X55.531 Y82.055 E39.21619
G1 X55.523 Y81.836 E39.22532
G1 X55.547 Y80.910 E39.26389
G1 X55.520 Y80.020 E39.30096
G1 X55.483 Y79.681 E39.31516
G1 X55.460 Y79.158 E39.33696
G1 X55.265 Y78.072 E39.38290
G1 X55.251 Y78.024 E39.38498
G1 X55.241 Y77.917 E39.38946
G1 X55.086 Y77.325 E39.41494
G1 X54.867 Y76.763 E39.44005
G1 X54.720 Y76.307 E39.46000
G1 X54.513 Y75.824 E39.48188
G1 X54.446 Y75.536 E39.49419
G1 X54.244 Y75.170 E39.51160
G1 X54.046 Y74.683 E39.53349
G1 X53.974 Y74.442 E39.54396
G1 X53.758 Y73.999 E39.56448
G1 X53.417 Y73.152 E39.60250
G1 X53.135 Y72.478 E39.63292
G1 X52.854 Y71.971 E39.65706
G1 X52.122 Y70.809 E39.71424
G1 X51.839 Y70.303 E39.73838
G1 X51.578 Y69.744 E39.76407
G1 X51.319 Y69.074 E39.79398
G1 X51.129 Y68.455 E39.82094
G1 X51.020 Y67.963 E39.84192
G1 X50.945 Y67.594 E39.85760
G1 X50.767 Y65.994 E39.92463
G1 X50.597 Y64.495 E39.98745
G1 X50.355 Y63.411 E40.03369
G1 X50.107 Y62.799 E40.06119
G1 X49.941 Y62.470 E40.07653
G1 X49.610 Y61.977 E40.10126
G1 X49.156 Y61.421 E40.13115
G1 X48.580 Y60.882 E40.16399
G1 X48.240 Y60.571 E40.18318
G1 X47.569 Y60.094 E40.21746
G1 X46.709 Y59.578 E40.25922
G1 X46.065 Y59.166 E40.29105
G1 X45.348 Y58.653 E40.32776
G1 X44.777 Y58.261 E40.35660
G1 X43.585 Y57.369 E40.41859
G1 X43.446 Y57.226 E40.42689
G1 X42.899 Y56.814 E40.45541
G1 X42.574 Y56.551 E40.47281
G1 X42.006 Y56.207 E40.50046
G1 X41.088 Y55.836 E40.54169
G1 X40.011 Y55.385 E40.59031
G1 X39.279 Y55.057 E40.62371
G1 X38.649 Y54.742 E40.65303
G1 X38.137 Y54.443 E40.67772
G1 X36.523 Y53.405 E40.75762
G1 X35.886 Y53.001 E40.78903
G1 X34.691 Y52.281 E40.84712
G1 X34.217 Y52.020 E40.86965
G1 X32.584 Y50.953 E40.95088
G1 X31.931 Y50.470 E40.98470
G1 X31.111 Y49.836 E41.02785
G1 X30.640 Y49.495 E41.05207
G1 X29.565 Y48.610 E41.11004
G1 X28.425 Y47.580 E41.17402
G1 X27.408 Y46.520 E41.23518
G1 X26.064 Y44.976 E41.32041
G1 X25.755 Y44.524 E41.34321
G1 X25.236 Y43.715 E41.38323
G1 X25.081 Y43.449 E41.39605
G1 X24.776 Y42.754 E41.42765
G1 X24.445 Y41.715 E41.47306
G1 X23.955 Y39.904 E41.55118
G1 X23.729 Y39.166 E41.58331
G1 X23.561 Y38.446 E41.61410
G1 X23.478 Y37.889 E41.63755
G1 X23.409 Y37.183 E41.66708
G1 X23.261 Y35.796 E41.72516
G1 X23.172 Y34.389 E41.78386
G1 X23.171 Y34.201 E41.79169
G1 X23.209 Y32.889 E41.84634
G1 X23.219 Y32.491 E41.86292
G1 X23.254 Y31.890 E41.88799
G1 X23.505 Y31.077 E41.92342
G1 X23.833 Y30.329 E41.95742
G1 X23.990 Y29.779 E41.98124
G1 X24.172 Y29.211 E42.00607
G1 X24.395 Y28.589 E42.03359
G1 X24.577 Y28.220 E42.05072
G1 X24.937 Y27.651 E42.07875
G1 X25.338 Y26.957 E42.11213
G1 X25.514 Y26.638 E42.12730
G1 X25.771 Y26.064 E42.15349
G1 X26.046 Y25.533 E42.17838
G1 X26.088 Y25.467 E42.18164
G1 X26.682 Y24.680 E42.22270
G1 X27.429 Y23.721 E42.27331
G1 X28.148 Y22.623 E42.32796
G1 X28.712 Y21.832 E42.36841
G0 F10500 X28.212 Y21.457
;TYPE:WALL-OUTER
G1 F900 X28.601 Y20.939 E42.39538
G1 X29.094 Y20.384 E42.42629
G1 X29.261 Y20.200 E42.43664
G1 X29.766 Y19.750 E42.46480
G1 X30.203 Y19.417 E42.48768
G1 X30.829 Y19.005 E42.51888
G1 X31.099 Y18.849 E42.53187
G1 X31.648 Y18.605 E42.55688
G1 X32.919 Y18.314 E42.61117
G1 X33.453 Y18.156 E42.63436
G1 X33.692 Y18.067 E42.64498
G1 X34.022 Y17.852 E42.66138
G1 X34.288 Y17.616 E42.67619
G1 X34.637 Y17.207 E42.69857
G1 X35.005 Y16.616 E42.72756
G1 X35.605 Y15.270 E42.78892
G1 X36.439 Y13.508 E42.87009
G1 X36.818 Y12.639 E42.90957
G1 X37.026 Y12.150 E42.93169
G1 X37.233 Y11.695 E42.95251
G1 X37.508 Y11.211 E42.97569
G1 X37.855 Y10.587 E43.00542
G1 X38.159 Y9.866 E43.03800
G1 X38.230 Y9.708 E43.04521
G1 X38.628 Y9.077 E43.07627
G1 X38.678 Y8.905 E43.08373
G1 X38.710 Y8.852 E43.08631
G1 X38.854 Y8.097 E43.11831
G1 X39.030 Y7.557 E43.14196
G1 X39.119 Y7.291 E43.15364
G1 X39.504 Y6.584 E43.18716
G1 X39.618 Y6.414 E43.19568
G1 X39.796 Y6.200 E43.20727
G1 X40.035 Y6.014 E43.21988
G1 X40.243 Y5.925 E43.22930
G1 X40.352 Y5.868 E43.23442
G1 X40.570 Y5.848 E43.24354
G1 X40.728 Y5.849 E43.25012
G1 X40.926 Y5.872 E43.25842
G1 X41.364 Y5.884 E43.27666
G1 X41.756 Y5.917 E43.29304
G1 X42.468 Y6.081 E43.32346
G1 X43.086 Y6.288 E43.35060
G1 X43.697 Y6.628 E43.37972
G1 X44.122 Y6.989 E43.40293
G1 X44.187 Y7.096 E43.40815
G1 X44.274 Y7.169 E43.41288
G1 X44.662 Y7.630 E43.43797
G1 X44.831 Y7.683 E43.44534
G1 X45.233 Y7.928 E43.46494
G1 X45.888 Y8.393 E43.49839
G1 X46.000 Y8.584 E43.50761
G1 X46.077 Y9.398 E43.54165
G1 X46.328 Y10.236 E43.57808
G1 X46.511 Y10.556 E43.59343
G1 X46.847 Y11.000 E43.61661
G1 X47.181 Y11.294 E43.63514
G1 X47.357 Y11.378 E43.64326
G1 X47.675 Y11.485 E43.65723
G1 X47.889 Y11.489 E43.66614
G1 X48.830 Y11.543 E43.70539
G1 X49.176 Y11.661 E43.72061
G1 X49.431 Y11.907 E43.73536
G1 X49.454 Y11.948 E43.73732
G1 X49.487 Y11.982 E43.73929
G1 X49.809 Y12.481 E43.76402
G1 X50.097 Y12.880 E43.78451
G1 X50.592 Y13.704 E43.82453
G1 X50.751 Y14.147 E43.84413
G1 X51.014 Y15.133 E43.88662
G1 X51.041 Y15.263 E43.89215
G1 X51.115 Y16.092 E43.92680
G1 X51.300 Y16.824 E43.95824
G1 X51.348 Y17.001 E43.96588
G1 X51.623 Y17.683 E43.99650
G1 X51.692 Y17.876 E44.00503
G1 X52.058 Y18.496 E44.03501
G1 X52.309 Y18.970 E44.05734
G1 X52.388 Y19.158 E44.06583
G1 X52.923 Y19.827 E44.10150
G1 X54.080 Y20.795 E44.16431
G1 X54.420 Y21.094 E44.18316
G1 X54.706 Y21.378 E44.19995
G1 X55.386 Y22.115 E44.24170
G1 X55.748 Y22.555 E44.26542
G1 X56.380 Y23.499 E44.31273
G1 X56.771 Y24.021 E44.33988
G1 X57.204 Y24.423 E44.36448
G1 X57.692 Y24.740 E44.38871
G1 X58.068 Y24.973 E44.40713
G1 X58.638 Y25.269 E44.43388
G1 X58.810 Y25.351 E44.44181
G1 X59.340 Y25.507 E44.46481
G1 X59.884 Y25.624 E44.48798
G1 X60.827 Y25.863 E44.52849
G1 X61.580 Y26.016 E44.56048
G1 X62.530 Y26.270 E44.60143
G1 X62.697 Y26.287 E44.60842
G1 X63.320 Y26.500 E44.63583
G1 X63.366 Y26.519 E44.63790
G1 X64.356 Y26.713 E44.67991
G1 X65.227 Y26.955 E44.71755
G1 X65.966 Y27.058 E44.74862
G1 X66.984 Y27.285 E44.79205
G1 X67.566 Y27.430 E44.81702
G1 X67.578 Y27.430 E44.81752
G1 X68.329 Y27.700 E44.85075
G1 X68.582 Y27.767 E44.86165
G1 X69.164 Y28.060 E44.88878
G1 X69.340 Y28.121 E44.89653
G1 X70.080 Y28.566 E44.93249
G1 X70.545 Y28.840 E44.95496
G1 X70.718 Y28.939 E44.96326
G1 X71.720 Y29.324 E45.00796
G1 X72.772 Y29.658 E45.05391
G1 X72.888 Y29.696 E45.05900
G1 X73.506 Y29.844 E45.08546
G1 X74.036 Y29.927 E45.10779
G1 X74.604 Y29.964 E45.13149
G1 X75.274 Y30.086 E45.15985
G1 X76.252 Y30.208 E45.20089
G1 X77.139 Y30.367 E45.23841
G1 X77.419 Y30.463 E45.25073
G1 X78.254 Y30.643 E45.28630
G1 X78.527 Y30.711 E45.29801
G1 X79.054 Y30.795 E45.32023
G1 X80.245 Y30.964 E45.37032
G1 X81.542 Y31.209 E45.42528
G1 X82.648 Y31.595 E45.47406
G1 X83.323 Y31.848 E45.50407
G1 X84.302 Y32.279 E45.54861
G1 X85.674 Y33.015 E45.61344
G1 X86.288 Y33.336 E45.64229
G1 X87.050 Y33.844 E45.68042
G1 X87.729 Y34.259 E45.71356
G1 X88.385 Y34.744 E45.74752
G1 X88.783 Y35.064 E45.76879
G1 X89.795 Y35.931 E45.82428
G1 X90.615 Y36.716 E45.87154
G1 X91.380 Y37.492 E45.91691
G1 X91.759 Y37.883 E45.93959
G1 X92.266 Y38.413 E45.97013
G1 X92.948 Y39.197 E46.01339
G1 X93.488 Y39.901 E46.05034
G1 X94.129 Y40.803 E46.09641
G1 X94.499 Y41.331 E46.12326
G1 X95.036 Y42.081 E46.16167
G1 X95.552 Y42.827 E46.19943
G1 X96.061 Y43.660 E46.24008
G1 X96.397 Y44.298 E46.27010
G1 X96.683 Y44.952 E46.29983
G1 X96.849 Y45.421 E46.32054
G1 X97.033 Y46.111 E46.35028
G1 X97.145 Y46.626 E46.37222
G1 X97.241 Y47.151 E46.39444
G1 X97.576 Y49.253 E46.48307
G1 X97.815 Y51.091 E46.56025
G1 X98.081 Y53.311 E46.65334
G1 X98.286 Y54.502 E46.70366
G1 X98.475 Y55.345 E46.73963
G1 X98.594 Y55.933 E46.76461
G1 X98.821 Y57.152 E46.81624
G1 X99.066 Y58.257 E46.86337
G1 X99.301 Y59.090 E46.89941
G1 X99.565 Y59.988 E46.93838
G1 X99.894 Y61.055 E46.98487
G1 X100.130 Y61.803 E47.01753
G1 X100.419 Y62.916 E47.06541
G1 X100.631 Y63.942 E47.10904
G1 X100.906 Y65.743 E47.18489
G1 X101.110 Y67.006 E47.23816
G1 X101.204 Y67.779 E47.27059
G1 X101.281 Y68.340 E47.29417
G1 X101.328 Y68.985 E47.32109
G1 X101.439 Y70.215 E47.37252
G1 X101.482 Y71.081 E47.40862
G1 X101.492 Y71.371 E47.42070
G1 X101.487 Y71.737 E47.43594
G1 X101.349 Y73.594 E47.51348
G1 X101.328 Y74.122 E47.53548
G1 X101.272 Y74.797 E47.56368
G1 X101.219 Y75.744 E47.60317
G1 X101.191 Y76.297 E47.62623
G1 X101.123 Y76.947 E47.65344
G1 X101.058 Y77.591 E47.68039
G1 X100.923 Y78.536 E47.72014
G1 X100.863 Y79.121 E47.74463
G1 X100.838 Y79.685 E47.76813
G1 X100.826 Y80.127 E47.78654
G1 X100.835 Y80.873 E47.81761
G1 X100.720 Y82.888 E47.90165
G1 X100.575 Y84.084 E47.95181
G1 X100.358 Y85.183 E47.99845
G1 X100.111 Y86.197 E48.04191
G1 X99.533 Y88.369 E48.13549
G1 X99.373 Y88.924 E48.15954
G1 X99.080 Y89.912 E48.20245
G1 X98.796 Y91.023 E48.25020
G1 X98.675 Y91.639 E48.27634
G1 X98.348 Y93.691 E48.36286
G1 X98.181 Y94.722 E48.40635
G1 X98.055 Y95.405 E48.43526
G1 X97.876 Y96.263 E48.47176
G1 X97.612 Y97.203 E48.51241
G1 X97.179 Y98.576 E48.57236
G1 X96.966 Y99.278 E48.60290
G1 X96.665 Y100.355 E48.64947
G1 X96.269 Y101.400 E48.69600
G1 X96.064 Y102.008 E48.72271
G1 X95.936 Y102.481 E48.74312
G1 X95.862 Y102.940 E48.76248
G1 X95.885 Y103.391 E48.78128
G1 X95.965 Y103.770 E48.79741
G1 X96.188 Y104.233 E48.81880
G1 X96.220 Y104.346 E48.82369
G1 X96.761 Y105.224 E48.86664
G1 X97.099 Y105.697 E48.89084
G1 X97.734 Y106.676 E48.93943
G1 X98.011 Y107.235 E48.96541
G1 X98.284 Y108.046 E49.00104
G1 X98.462 Y108.799 E49.03325
G1 X98.647 Y110.038 E49.08542
G1 X98.685 Y110.448 E49.10256
G1 X98.680 Y111.244 E49.13570
G1 X98.650 Y111.771 E49.15768
G1 X98.599 Y112.312 E49.18031
G1 X98.532 Y112.810 E49.20123
G1 X98.452 Y113.312 E49.22240
G1 X98.266 Y114.132 E49.25741
G1 X97.913 Y115.300 E49.30821
G1 X97.675 Y116.050 E49.34098
G1 X97.502 Y116.532 E49.36230
G1 X97.241 Y117.206 E49.39239
G1 X97.008 Y117.730 E49.41627
G1 X96.733 Y118.249 E49.44073
G1 X96.705 Y118.323 E49.44402
G1 X96.326 Y119.006 E49.47655
G1 X96.180 Y119.466 E49.49664
G1 X96.107 Y120.485 E49.53918
G1 X96.070 Y120.652 E49.54630
G1 X95.831 Y121.271 E49.57393
G1 X95.713 Y121.617 E49.58915
G1 X95.684 Y121.917 E49.60170
G1 X95.676 Y122.285 E49.61703
G1 X95.744 Y122.615 E49.63106
G1 X95.790 Y123.140 E49.65300
G1 X95.806 Y123.260 E49.65804
G1 X95.791 Y123.631 E49.67350
G1 X95.643 Y124.235 E49.69940
G1 X95.510 Y124.750 E49.72154
G1 X95.434 Y125.187 E49.74001
G1 X95.222 Y125.770 E49.76584
G1 X95.044 Y126.342 E49.79078
G1 X95.016 Y126.551 E49.79956
G1 X95.008 Y126.814 E49.81052
G1 X95.021 Y127.194 E49.82635
G1 X95.065 Y127.611 E49.84381
G1 X95.177 Y128.171 E49.86759
G1 X95.266 Y128.518 E49.88251
G1 X95.313 Y128.846 E49.89630
G1 X95.275 Y129.385 E49.91880
G1 X95.246 Y129.567 E49.92648
G1 X95.142 Y130.631 E49.97099
G1 X94.985 Y131.200 E49.99557
G1 X94.621 Y131.870 E50.02732
G1 X93.740 Y133.009 E50.08727
G1 X93.551 Y133.198 E50.09840
G1 X93.120 Y133.502 E50.12036
G1 X92.525 Y133.938 E50.15108
G1 X92.091 Y134.293 E50.17442
G1 X91.735 Y134.596 E50.19389
G1 X91.287 Y134.881 E50.21600
G1 X90.449 Y135.318 E50.25535
G1 X89.964 Y135.568 E50.27807
G1 X89.463 Y135.763 E50.30045
G1 X88.989 Y135.932 E50.32141
G1 X88.387 Y136.138 E50.34790
G1 X86.586 Y136.679 E50.42620
G1 X85.909 Y136.853 E50.45530
G1 X85.325 Y137.103 E50.48176
G1 X84.306 Y137.405 E50.52601
G1 X84.013 Y137.496 E50.53878
G1 X83.520 Y137.582 E50.55962
G1 X82.942 Y137.647 E50.58384
G1 X81.254 Y137.805 E50.65443
G1 X80.910 Y137.842 E50.66884
G1 X79.751 Y137.828 E50.71710
G1 X79.160 Y137.784 E50.74178
G1 X77.806 Y137.638 E50.79848
G1 X77.010 Y137.548 E50.83184
G1 X76.469 Y137.551 E50.85436
G1 X76.008 Y137.549 E50.87356
G1 X75.139 Y137.676 E50.91012
G1 X74.519 Y137.915 E50.93779
G1 X74.315 Y138.015 E50.94725
G1 X74.003 Y138.242 E50.96332
G1 X73.829 Y138.345 E50.97174
G1 X73.088 Y138.916 E51.01069
G1 X72.573 Y139.296 E51.03734
G1 X71.248 Y139.897 E51.09792
G1 X70.704 Y140.159 E51.12306
G1 X70.049 Y140.540 E51.15461
G1 X69.503 Y140.954 E51.18314
G1 X68.950 Y141.430 E51.21352
G1 X68.670 Y141.800 E51.23284
G1 X68.565 Y142.108 E51.24639
G1 X68.271 Y142.740 E51.27541
G1 X67.978 Y143.240 E51.29954
G1 X67.661 Y143.650 E51.32112
G1 X67.322 Y144.033 E51.34242
G1 X66.614 Y144.716 E51.38338
G1 X65.125 Y145.880 E51.46208
G1 X65.078 Y145.966 E51.46616
G1 X64.895 Y146.152 E51.47702
G1 X64.786 Y146.171 E51.48163
G1 X64.520 Y146.460 E51.49798
G1 X64.093 Y146.734 E51.51911
G1 X63.458 Y147.165 E51.55106
G1 X62.991 Y147.522 E51.57554
G1 X62.891 Y147.656 E51.58250
G1 X62.601 Y147.907 E51.59847
G1 X62.410 Y148.007 E51.60745
G1 X61.973 Y148.294 E51.62922
G1 X61.789 Y148.423 E51.63857
G1 X61.369 Y148.831 E51.66295
G1 X61.334 Y148.888 E51.66574
G1 X60.889 Y149.203 E51.68844
G1 X60.639 Y149.371 E51.70098
G1 X60.425 Y149.473 E51.71085
G1 X59.178 Y149.741 E51.76396
G1 X58.269 Y149.856 E51.80211
G1 X57.487 Y149.969 E51.83501
G1 X56.856 Y150.055 E51.86153
G1 X56.825 Y150.064 E51.86287
G1 X56.226 Y150.149 E51.88806
G1 X55.732 Y150.179 E51.90867
G1 X54.897 Y150.144 E51.94347
G1 X54.620 Y150.103 E51.95513
G1 X54.462 Y150.095 E51.96171
G1 X53.905 Y149.978 E51.98541
G1 X53.526 Y149.822 E52.00248
G1 X53.135 Y149.636 E52.02051
G1 X52.285 Y149.392 E52.05733
G1 X51.720 Y149.283 E52.08129
G1 X50.794 Y149.031 E52.12125
G1 X50.373 Y148.893 E52.13969
G1 X49.343 Y148.434 E52.18665
G1 X49.044 Y148.280 E52.20065
G1 X48.115 Y147.721 E52.24580
G1 X47.444 Y147.397 E52.27682
G1 X46.935 Y147.165 E52.30011
G1 X46.179 Y146.784 E52.33536
G1 X45.173 Y146.403 E52.38015
G1 X43.794 Y145.727 E52.44410
G1 X43.183 Y145.348 E52.47404
G1 X42.788 Y145.079 E52.49394
G1 X42.168 Y144.597 E52.52664
G1 X41.443 Y143.904 E52.56840
G1 X41.268 Y143.753 E52.57802
G1 X40.349 Y142.678 E52.63691
G1 X39.415 Y141.463 E52.70072
G1 X38.979 Y140.913 E52.72994
G1 X38.521 Y140.398 E52.75864
G1 X38.312 Y140.255 E52.76918
G1 X38.259 Y140.198 E52.77242
G1 X38.094 Y140.076 E52.78097
G1 X38.071 Y140.047 E52.78251
G1 X37.694 Y139.674 E52.80459
G1 X37.319 Y139.124 E52.83231
G1 X37.111 Y138.549 E52.85777
G1 X36.857 Y137.909 E52.88644
G1 X36.669 Y137.465 E52.90652
G1 X36.497 Y136.946 E52.92928
G1 X36.266 Y136.373 E52.95501
G1 X35.605 Y134.486 E53.03826
G1 X35.393 Y133.775 E53.06915
G1 X35.397 Y133.743 E53.07049
G1 X35.248 Y133.014 E53.10147
G1 X35.108 Y132.232 E53.13455
G1 X34.982 Y130.919 E53.18947
G1 X34.913 Y130.017 E53.22714
G1 X34.901 Y129.760 E53.23785
G1 X34.918 Y128.796 E53.27800
G1 X34.949 Y128.132 E53.30568
G1 X35.037 Y127.086 E53.34938
G1 X35.149 Y126.355 E53.38018
G1 X35.404 Y125.086 E53.43407
G1 X35.699 Y124.101 E53.47689
G1 X36.037 Y123.122 E53.52001
G1 X36.437 Y122.184 E53.56247
G1 X36.781 Y121.461 E53.59581
G1 X37.445 Y120.265 E53.65277
G1 X37.798 Y119.682 E53.68114
G1 X38.210 Y119.047 E53.71266
G1 X38.757 Y118.318 E53.75061
G1 X39.414 Y117.449 E53.79597
G1 X40.248 Y116.599 E53.84555
G1 X40.546 Y116.323 E53.86247
G1 X40.988 Y115.975 E53.88589
G1 X41.434 Y115.653 E53.90880
G1 X41.680 Y115.472 E53.92151
G1 X42.197 Y115.157 E53.94672
G1 X43.253 Y114.627 E53.99592
G1 X43.766 Y114.420 E54.01895
G1 X44.350 Y114.193 E54.04504
G1 X45.060 Y113.972 E54.07600
G1 X45.790 Y113.779 E54.10744
G1 X46.418 Y113.660 E54.13406
G1 X47.132 Y113.588 E54.16394
G1 X47.999 Y113.493 E54.20025
G1 X48.605 Y113.448 E54.22555
G1 X49.635 Y113.387 E54.26852
G1 X50.235 Y113.360 E54.29352
G1 X51.414 Y113.286 E54.34271
G1 X51.975 Y113.222 E54.36622
G1 X52.646 Y113.113 E54.39453
G1 X52.923 Y113.062 E54.40626
G1 X53.562 Y112.860 E54.43416
G1 X53.620 Y112.838 E54.43674
G1 X54.072 Y112.600 E54.45801
G1 X54.330 Y112.404 E54.47150
G1 X55.082 Y111.563 E54.51848
G1 X55.369 Y111.109 E54.54084
G1 X55.536 Y110.670 E54.56040
G1 X55.579 Y110.384 E54.57244
G1 X55.588 Y110.216 E54.57945
G1 X55.495 Y109.327 E54.61667
G1 X55.066 Y107.646 E54.68890
G1 X54.945 Y107.097 E54.71231
G1 X54.799 Y106.078 E54.75517
G1 X54.696 Y105.290 E54.78826
G1 X54.649 Y104.897 E54.80474
G1 X54.642 Y104.352 E54.82744
G1 X54.623 Y104.048 E54.84012
G1 X54.635 Y103.455 E54.86482
G1 X54.596 Y103.275 E54.87248
G1 X54.610 Y102.892 E54.88844
G1 X54.577 Y101.899 E54.92981
G1 X54.585 Y100.978 E54.96816
G1 X54.601 Y100.299 E54.99644
G1 X54.607 Y99.893 E55.01335
G1 X54.652 Y99.611 E55.02524
G1 X54.647 Y99.458 E55.03161
G1 X54.657 Y99.082 E55.04727
G1 X54.640 Y98.371 E55.07689
G1 X54.649 Y97.665 E55.10629
G1 X54.677 Y97.312 E55.12103
G1 X54.700 Y96.636 E55.14919
G1 X54.697 Y96.503 E55.15473
G1 X54.743 Y95.876 E55.18091
G1 X54.738 Y95.833 E55.18271
G1 X54.768 Y94.772 E55.22691
G1 X54.829 Y93.736 E55.27012
G1 X54.930 Y92.257 E55.33185
G1 X54.884 Y91.415 E55.36696
G1 X54.885 Y90.789 E55.39302
G1 X54.757 Y89.425 E55.45007
G1 X54.688 Y88.913 E55.47158
G1 X54.663 Y88.798 E55.47648
G1 X54.636 Y87.836 E55.51655
G1 X54.579 Y87.569 E55.52792
G1 X54.580 Y87.550 E55.52871
G1 X54.576 Y87.441 E55.53325
G1 X54.600 Y86.719 E55.56333
G1 X54.576 Y86.146 E55.58721
G1 X54.575 Y85.984 E55.59396
G1 X54.744 Y84.216 E55.66791
G1 X54.837 Y83.720 E55.68892
G1 X54.831 Y83.610 E55.69351
G1 X54.852 Y83.370 E55.70354
G1 X54.850 Y83.048 E55.71695
G1 X54.875 Y82.825 E55.72629
G1 X54.862 Y82.610 E55.73526
G1 X54.893 Y82.397 E55.74422
G1 X54.905 Y82.055 E55.75847
G1 X54.897 Y81.827 E55.76797
G1 X54.922 Y80.911 E55.80612
G1 X54.896 Y80.064 E55.84141
G1 X54.838 Y79.228 E55.87630
G1 X54.655 Y78.214 E55.91920
G1 X54.490 Y77.518 E55.94899
G1 X54.274 Y76.962 E55.97382
G1 X54.135 Y76.526 E55.99288
G1 X53.916 Y76.018 E56.01591
G1 X53.857 Y75.762 E56.02685
G1 X53.677 Y75.437 E56.04232
G1 X53.454 Y74.888 E56.06699
G1 X53.390 Y74.669 E56.07649
G1 X53.185 Y74.250 E56.09591
G1 X52.834 Y73.378 E56.13505
G1 X52.575 Y72.756 E56.16311
G1 X52.316 Y72.289 E56.18534
G1 X51.599 Y71.153 E56.24128
G1 X51.280 Y70.584 E56.26844
G1 X51.003 Y69.990 E56.29573
G1 X50.724 Y69.269 E56.32792
G1 X50.525 Y68.619 E56.35622
G1 X50.410 Y68.099 E56.37840
G1 X50.326 Y67.683 E56.39607
G1 X49.980 Y64.600 E56.52525
G1 X49.756 Y63.598 E56.56800
G1 X49.537 Y63.057 E56.59230
G1 X49.401 Y62.786 E56.60492
G1 X49.108 Y62.350 E56.62680
G1 X48.698 Y61.848 E56.65378
G1 X48.156 Y61.341 E56.68469
G1 X47.846 Y61.058 E56.70216
G1 X47.227 Y60.618 E56.73379
G1 X46.387 Y60.114 E56.77457
G1 X45.719 Y59.687 E56.80758
G1 X44.989 Y59.164 E56.84498
G1 X44.434 Y58.784 E56.87298
G1 X43.168 Y57.837 E56.93881
G1 X43.032 Y57.696 E56.94697
G1 X42.531 Y57.319 E56.97308
G1 X42.225 Y57.073 E56.98942
G1 X42.020 Y56.960 E56.99917
G1 X41.717 Y56.765 E57.01417
G1 X40.858 Y56.418 E57.05275
G1 X39.756 Y55.955 E57.10252
G1 X39.013 Y55.623 E57.13640
G1 X38.345 Y55.289 E57.16750
G1 X37.807 Y54.974 E57.19346
G1 X36.187 Y53.932 E57.27366
G1 X35.557 Y53.533 E57.30471
G1 X34.379 Y52.823 E57.36198
G1 X33.901 Y52.560 E57.38470
G1 X32.232 Y51.470 E57.46770
G1 X31.559 Y50.972 E57.50256
G1 X30.736 Y50.336 E57.54587
G1 X30.244 Y49.979 E57.57118
G1 X29.167 Y49.092 E57.62927
G1 X27.982 Y48.021 E57.69578
G1 X26.942 Y46.937 E57.75833
G1 X25.569 Y45.360 E57.84539
G1 X25.235 Y44.871 E57.87005
G1 X24.702 Y44.039 E57.91119
G1 X24.526 Y43.737 E57.92575
G1 X24.188 Y42.969 E57.96068
G1 X23.849 Y41.904 E58.00722
G1 X23.355 Y40.077 E58.08603
G1 X23.125 Y39.329 E58.11861
G1 X22.948 Y38.569 E58.15110
G1 X22.860 Y37.981 E58.17586
G1 X22.787 Y37.247 E58.20657
G1 X22.639 Y35.863 E58.26453
G1 X22.547 Y34.414 E58.32498
G1 X22.546 Y34.183 E58.33460
G1 X22.584 Y32.872 E58.38921
G1 X22.594 Y32.475 E58.40574
G1 X22.631 Y31.829 E58.43269
G1 X22.641 Y31.752 E58.43592
G1 X22.922 Y30.848 E58.47534
G1 X23.242 Y30.122 E58.50837
G1 X23.386 Y29.617 E58.53024
G1 X23.574 Y29.030 E58.55590
G1 X23.820 Y28.342 E58.58633
G1 X24.029 Y27.919 E58.60597
G1 X24.402 Y27.327 E58.63511
G1 X24.794 Y26.649 E58.66771
G1 X24.954 Y26.358 E58.68154
G1 X25.208 Y25.791 E58.70741
G1 X25.501 Y25.228 E58.73384
G1 X26.180 Y24.307 E58.78148
G1 X26.920 Y23.357 E58.83162
G1 X27.639 Y22.260 E58.88624
G1 X28.212 Y21.457 E58.92731
G0 F10500 X28.763 Y22.135
;TYPE:SKIN
G1 F900 X97.888 Y91.259 E62.99770
G0 F10500 X98.048 Y90.536
G1 F900 X29.139 Y21.626 E67.05544
G0 F10500 X29.544 Y21.148
G1 F900 X98.229 Y89.832 E71.09992
G0 F10500 X98.425 Y89.144
G1 F900 X29.974 Y20.694 E75.13063
G0 F10500 X30.452 Y20.289
G1 F900 X98.625 Y88.461 E79.14496
G0 F10500 X98.819 Y87.771
G1 F900 X30.970 Y19.922 E83.14024
G0 F10500 X31.517 Y19.585
G1 F900 X99.004 Y87.073 E87.11424
G0 F10500 X99.190 Y86.375
G1 F900 X32.167 Y19.352 E91.06089
G0 F10500 X32.886 Y19.187
G1 F900 X99.371 Y85.671 E94.97583
G0 F10500 X99.542 Y84.958
G1 F900 X33.581 Y18.998 E98.85991
G0 F10500 X34.206 Y18.739
G1 F900 X99.687 Y84.220 E102.71575
G0 F10500 X99.801 Y83.450
G1 F900 X34.716 Y18.364 E106.54831
G0 F10500 X35.145 Y17.910
G1 F900 X99.888 Y82.653 E110.36070
G0 F10500 X99.936 Y81.817
G1 F900 X35.513 Y17.394 E114.15424
G0 F10500 X35.831 Y16.829
G1 F900 X99.984 Y80.981 E117.93186
G0 F10500 X99.982 Y80.096
G1 F900 X36.104 Y16.217 E121.69334
G0 F10500 X36.377 Y15.606
G1 F900 X100.012 Y79.241 E125.44049
G0 F10500 X100.084 Y78.430
G1 F900 X36.661 Y15.006 E129.17518
G0 F10500 X36.945 Y14.407
G1 F900 X100.195 Y77.657 E132.89965
G0 F10500 X100.284 Y76.861
G1 F900 X37.228 Y13.806 E136.61267
G0 F10500 X37.495 Y13.188
G1 F900 X100.358 Y76.052 E140.31439
G0 F10500 X100.403 Y75.213
G1 F900 X37.761 Y12.571 E144.00306
G0 F10500 X38.045 Y11.971
G1 F900 X100.458 Y74.384 E147.67824
G0 F10500 X100.505 Y73.547
G1 F900 X38.362 Y11.404 E151.33753
G0 F10500 X38.668 Y10.827
G1 F900 X100.566 Y72.725 E154.98239
G0 F10500 X100.628 Y71.902
G1 F900 X38.929 Y10.204 E158.61551
G0 F10500 X39.262 Y9.652
G1 F900 X100.634 Y71.024 E162.22939
G0 F10500 X100.580 Y70.087
G1 F900 X39.532 Y9.039 E165.82420
G0 F10500 X39.675 Y8.297
G1 F900 X100.492 Y69.115 E169.40544
G0 F10500 X100.402 Y68.141
G1 F900 X58.307 Y26.046 E171.88420
G0 F10500 X59.563 Y26.418
G1 F900 X100.274 Y67.129 E174.28146
G0 F10500 X100.108 Y66.079
G1 F900 X60.748 Y26.719 E176.59918
G0 F10500 X61.883 Y26.971
G1 F900 X99.944 Y65.031 E178.84037
G0 F10500 X99.776 Y63.979
G1 F900 X63.129 Y27.333 E180.99829
G0 F10500 X64.237 Y27.556
G1 F900 X99.530 Y62.849 E183.07652
G0 F10500 X99.192 Y61.627
G1 F900 X65.394 Y27.830 E185.06669
G0 F10500 X66.487 Y28.039
G1 F900 X98.791 Y60.343 E186.96891
G0 F10500 X98.428 Y59.096
G1 F900 X67.706 Y28.374 E188.77797
G0 F10500 X69.294 Y29.078
G1 F900 X98.123 Y57.907 E190.47556
G0 F10500 X97.895 Y56.795
G1 F900 X71.084 Y29.984 E192.05433
G0 F10500 X72.416 Y30.432
G1 F900 X97.684 Y55.700 E193.54223
G0 F10500 X97.440 Y54.573
G1 F900 X73.577 Y30.709 E194.94743
G0 F10500 X74.567 Y30.815
G1 F900 X97.258 Y53.506 E196.28359
G0 F10500 X97.133 Y52.497
G1 F900 X75.614 Y30.979 E197.55071
G0 F10500 X76.657 Y31.138
G1 F900 X97.012 Y51.492 E198.74928
G0 F10500 X96.884 Y50.481
G1 F900 X77.814 Y31.411 E199.87222
G0 F10500 X78.914 Y31.627
G1 F900 X96.752 Y49.465 E200.92261
G0 F10500 X96.588 Y48.417
G1 F900 X79.944 Y31.773 E201.90269
G0 F10500 X81.025 Y31.971
G1 F900 X96.421 Y47.366 E202.80925
G0 F10500 X96.197 Y46.258
G1 F900 X82.311 Y32.372 E203.62693
G0 F10500 X83.805 Y32.982
G1 F900 X95.751 Y44.928 E204.33037
G0 F10500 X94.504 Y42.797
G1 F900 X85.670 Y33.964 E204.85053
G0 F10500 X88.725 Y36.135
G1 F900 X92.109 Y39.518 E205.04977
G0 F10500 X57.417 Y25.173
G0 X55.960 Y23.792
G0 X51.491 Y19.230
G1 F900 X39.893 Y7.632 E205.73271
G0 F10500 X40.205 Y7.060
G1 F900 X50.633 Y17.488 E206.34677
G0 F10500 X50.286 Y16.257
G1 F900 X40.728 Y6.699 E206.90959
G0 F10500 X41.678 Y6.766
G1 F900 X45.633 Y10.720 E207.14245
G0 F10500 X45.232 Y9.435
G1 F900 X43.006 Y7.210 E207.27350
G0 F10500 X47.093 Y12.180
G1 F900 X50.174 Y15.262 E207.45495
G0 F10500 X49.767 Y13.971
G1 F900 X48.146 Y12.349 E207.55043
G0 F10500 X28.395 Y22.650
G1 F900 X97.759 Y92.015 E211.63496
G0 F10500 X97.637 Y92.776
G1 F900 X28.042 Y23.181 E215.73306
G0 F10500 X27.692 Y23.715
G1 F900 X97.514 Y93.538 E219.84455
G0 F10500 X97.393 Y94.300
G1 F900 X27.314 Y24.221 E223.97115
G0 F10500 X26.928 Y24.719
G1 F900 X97.261 Y95.052 E228.11271
G0 F10500 X97.113 Y95.788
G1 F900 X26.546 Y25.221 E232.26804
G0 F10500 X26.182 Y25.741
G1 F900 X96.935 Y96.493 E236.43430
G0 F10500 X96.736 Y97.179
G1 F900 X25.890 Y26.332 E240.60609
G0 F10500 X25.602 Y26.928
G1 F900 X96.526 Y97.852 E244.78245
G0 F10500 X96.316 Y98.526
G1 F900 X25.281 Y27.491 E248.96534
G0 F10500 X24.948 Y28.042
G1 F900 X96.110 Y99.204 E253.15571
G0 F10500 X95.916 Y99.895
G1 F900 X24.629 Y28.607 E257.35347
G0 F10500 X24.389 Y29.251
G1 F900 X95.688 Y100.550 E261.55191
G0 F10500 X95.448 Y101.194
G1 F900 X24.175 Y29.921 E265.74882
G0 F10500 X23.958 Y30.588
G1 F900 X95.229 Y101.859 E269.94561
G0 F10500 X95.066 Y102.579
G1 F900 X23.693 Y31.207 E274.14837
G0 F10500 X23.485 Y31.882
G1 F900 X95.042 Y103.440 E278.36204
G0 F10500 X95.492 Y104.774
G1 F900 X23.431 Y32.712 E282.60537
G0 F10500 X23.407 Y33.572
G1 F900 X97.070 Y107.236 E286.94305
G0 F10500 X97.548 Y108.597
G1 F900 X23.393 Y34.443 E291.30963
G0 F10500 X23.453 Y35.386
G1 F900 X97.740 Y109.673 E295.68402
G0 F10500 X97.840 Y110.657
G1 F900 X50.575 Y63.392 E298.46721
G0 F10500 X50.819 Y64.520
G1 F900 X97.814 Y111.514 E301.23448
G0 F10500 X97.745 Y112.330
G1 F900 X50.931 Y65.516 E303.99112
G0 F10500 X51.043 Y66.511
G1 F900 X97.632 Y113.101 E306.73454
G0 F10500 X97.471 Y113.823
G1 F900 X51.154 Y67.507 E309.46189
G0 F10500 X51.419 Y68.655
G1 F900 X97.271 Y114.507 E312.16188
G0 F10500 X97.065 Y115.185
G1 F900 X51.992 Y70.112 E314.81600
G0 F10500 X53.276 Y72.281
G1 F900 X96.848 Y115.852 E317.38171
G0 F10500 X96.607 Y116.495
G1 F900 X53.915 Y73.803 E319.89563
G0 F10500 X54.614 Y75.386
G1 F900 X96.353 Y117.125 E322.35342
G0 F10500 X96.059 Y117.714
G1 F900 X55.098 Y76.754 E324.76538
G0 F10500 X55.476 Y78.016
G1 F900 X95.751 Y118.291 E327.13697
G0 F10500 X95.474 Y118.898
G1 F900 X55.671 Y79.094 E329.48080
G0 F10500 X55.739 Y80.046
G1 F900 X95.322 Y119.629 E331.81164
G0 F10500 X95.240 Y120.431
G1 F900 X55.764 Y80.955 E334.13619
G0 F10500 X55.741 Y81.817
G1 F900 X95.004 Y121.079 E336.44816
G0 F10500 X94.847 Y121.806
G1 F900 X55.710 Y82.669 E338.75274
G0 F10500 X55.683 Y83.526
G1 F900 X94.909 Y122.752 E341.06256
G0 F10500 X94.919 Y123.646
G1 F900 X55.584 Y84.311 E343.37880
G0 F10500 X55.505 Y85.116
G1 F900 X94.740 Y124.351 E345.68915
G0 F10500 X94.578 Y125.073
G1 F900 X55.427 Y85.922 E347.99455
G0 F10500 X55.440 Y86.819
G1 F900 X94.351 Y125.729 E350.28580
G0 F10500 X94.179 Y126.442
G1 F900 X55.473 Y87.736 E352.56500
G0 F10500 X55.503 Y88.649
G1 F900 X94.187 Y127.333 E354.84290
G0 F10500 X94.363 Y128.393
G1 F900 X55.625 Y89.656 E357.12396
G0 F10500 X55.716 Y90.630
G1 F900 X94.427 Y129.341 E359.40345
G0 F10500 X94.342 Y130.140
G1 F900 X55.735 Y91.533 E361.67683
G0 F10500 X55.763 Y92.445
G1 F900 X94.198 Y130.880 E363.94007
G0 F10500 X93.881 Y131.446
G1 F900 X55.710 Y93.275 E366.18777
G0 F10500 X55.656 Y94.106
G1 F900 X93.496 Y131.946 E368.41597
G0 F10500 X93.111 Y132.444
G1 F900 X55.607 Y94.941 E370.62437
G0 F10500 X55.584 Y95.802
G1 F900 X92.614 Y132.832 E372.80488
G0 F10500 X92.101 Y133.202
G1 F900 X55.543 Y96.644 E374.95759
G0 F10500 X55.508 Y97.493
G1 F900 X91.609 Y133.595 E377.08343
G0 F10500 X91.119 Y133.988
G1 F900 X55.483 Y98.352 E379.18185
G0 F10500 X55.496 Y99.249
G1 F900 X90.555 Y134.308 E381.24630
G0 F10500 X89.974 Y134.611
G1 F900 X55.447 Y100.083 E383.27945
G0 F10500 X55.430 Y100.950
G1 F900 X89.368 Y134.889 E385.27792
G0 F10500 X88.724 Y135.128
G1 F900 X55.421 Y101.826 E387.23893
G0 F10500 X55.449 Y102.737
G1 F900 X88.064 Y135.352 E389.15946
G0 F10500 X87.384 Y135.557
G1 F900 X55.475 Y103.647 E391.03845
G0 F10500 X55.488 Y104.544
G1 F900 X86.705 Y135.761 E392.87667
G0 F10500 X86.013 Y135.953
G1 F900 X55.575 Y105.515 E394.66901
G0 F10500 X55.717 Y106.541
G1 F900 X85.348 Y136.172 E396.41383
G0 F10500 X84.699 Y136.407
G1 F900 X55.936 Y107.644 E398.10753
G0 F10500 X56.239 Y108.830
G1 F900 X84.019 Y136.610 E399.74336
G0 F10500 X83.271 Y136.747
G1 F900 X56.401 Y109.877 E401.32560
G0 F10500 X56.378 Y110.737
G1 F900 X82.481 Y136.841 E402.86270
G0 F10500 X81.673 Y136.917
G1 F900 X56.158 Y111.401 E404.36518
G0 F10500 X55.829 Y111.956
G1 F900 X80.868 Y136.996 E405.83963
G0 F10500 X79.974 Y136.985
G1 F900 X55.428 Y112.439 E407.28502
G0 F10500 X55.011 Y112.906
G1 F900 X79.024 Y136.919 E408.69902
G0 F10500 X78.031 Y136.810
G1 F900 X54.531 Y113.310 E410.08282
G0 F10500 X53.952 Y113.615
G1 F900 X77.040 Y136.703 E411.44236
G0 F10500 X76.156 Y136.703
G1 F900 X53.285 Y113.832 E412.78911
G0 F10500 X52.551 Y113.982
G1 F900 X75.359 Y136.789 E414.13213
G0 F10500 X74.645 Y136.960
G1 F900 X51.778 Y114.093 E415.47865
G0 F10500 X50.961 Y114.160
G1 F900 X74.019 Y137.217 E416.83639
G0 F10500 X73.484 Y137.566
G1 F900 X50.128 Y114.210 E418.21171
G0 F10500 X49.286 Y114.252
G1 F900 X72.972 Y137.938 E419.60646
G0 F10500 X72.471 Y138.321
G1 F900 X48.453 Y114.303 E421.02076
G0 F10500 X47.644 Y114.378
G1 F900 X71.927 Y138.661 E422.45066
G0 F10500 X71.318 Y138.936
G1 F900 X46.845 Y114.462 E423.89178
G0 F10500 X46.080 Y114.582
G1 F900 X70.714 Y139.215 E425.34233
G0 F10500 X70.130 Y139.515
G1 F900 X45.375 Y114.761 E426.79999
G0 F10500 X44.699 Y114.968
G1 F900 X69.571 Y139.840 E428.26458
G0 F10500 X69.068 Y140.222
G1 F900 X44.059 Y115.212 E429.73726
G0 F10500 X43.440 Y115.477
G1 F900 X68.588 Y140.625 E431.21810
G0 F10500 X68.157 Y141.078
G1 F900 X42.851 Y115.772 E432.70825
G0 F10500 X42.285 Y116.090
G1 F900 X67.832 Y141.637 E434.21258
G0 F10500 X67.566 Y142.255
G1 F900 X41.764 Y116.453 E435.73193
G0 F10500 X41.260 Y116.833
G1 F900 X67.240 Y142.813 E437.26176
G0 F10500 X66.842 Y143.299
G1 F900 X40.792 Y117.248 E438.79574
G0 F10500 X40.354 Y117.695
G1 F900 X66.402 Y143.743 E440.32958
G0 F10500 X65.942 Y144.167
G1 F900 X39.934 Y118.158 E441.86109
G0 F10500 X39.554 Y118.663
G1 F900 X65.446 Y144.555 E443.38574
G0 F10500 X64.950 Y144.942
G1 F900 X39.175 Y119.167 E444.90350
G0 F10500 X38.804 Y119.680
G1 F900 X64.459 Y145.335 E446.41419
G0 F10500 X64.015 Y145.775
G1 F900 X38.458 Y120.218 E447.91911
G0 F10500 X38.128 Y120.772
G1 F900 X63.486 Y146.130 E449.41232
G0 F10500 X62.956 Y146.484
G1 F900 X37.812 Y121.340 E450.89292
G0 F10500 X37.500 Y121.912
G1 F900 X62.455 Y146.867 E452.36239
G0 F10500 X61.981 Y147.276
G1 F900 X37.215 Y122.510 E453.82074
G0 F10500 X36.950 Y123.129
G1 F900 X61.448 Y147.628 E455.26333
G0 F10500 X60.973 Y148.037
G1 F900 X36.705 Y123.769 E456.69235
G0 F10500 X36.480 Y124.427
G1 F900 X60.495 Y148.442 E458.10647
G0 F10500 X59.892 Y148.723
G1 F900 X36.277 Y125.108 E459.49704
G0 F10500 X36.114 Y125.829
G1 F900 X59.165 Y148.879 E460.85437
G0 F10500 X58.390 Y148.988
G1 F900 X35.969 Y126.567 E462.17463
G0 F10500 X35.862 Y127.344
G1 F900 X57.613 Y149.096 E463.45547
G0 F10500 X56.840 Y149.206
G1 F900 X35.793 Y128.159 E464.69482
G0 F10500 X35.757 Y129.008
G1 F900 X56.062 Y149.313 E465.89048
G0 F10500 X55.176 Y149.311
G1 F900 X35.751 Y129.885 E467.03435
G0 F10500 X35.822 Y130.840
G1 F900 X54.141 Y149.159 E468.11306
G0 F10500 X52.740 Y148.643
G1 F900 X35.916 Y131.818 E469.10377
G0 F10500 X36.078 Y132.864
G1 F900 X51.584 Y148.370 E470.01684
G0 F10500 X50.237 Y147.906
G1 F900 X36.345 Y134.015 E470.83484
G0 F10500 X36.804 Y135.358
G1 F900 X48.335 Y146.889 E471.51384
G0 F10500 X46.625 Y146.062
G1 F900 X37.326 Y136.764 E472.06138
G0 F10500 X37.881 Y138.203
G1 F900 X45.109 Y145.430 E472.48698
G0 F10500 X42.860 Y144.065
G1 F900 X41.385 Y142.590 E472.57383
G0 F10500 X56.089 Y110.436
G0 X55.155 Y78.098
G0 X52.757 Y72.028
G0 X49.844 Y62.528
G0 X47.507 Y60.188
G0 X46.113 Y58.930
G1 F900 X23.538 Y36.355 E473.90316
G0 F10500 X23.641 Y37.342
G1 F900 X42.622 Y56.323 E475.02085
G0 F10500 X40.957 Y55.542
G1 F900 X23.770 Y38.354 E476.03294
G0 F10500 X24.072 Y39.541
G1 F900 X39.402 Y54.870 E476.93562
G0 F10500 X37.280 Y53.633
G1 F900 X24.415 Y40.768 E477.69317
G0 F10500 X24.767 Y42.003
G1 F900 X34.937 Y52.173 E478.29203
G0 F10500 X32.485 Y50.606
G1 F900 X25.343 Y43.463 E478.71262
G1 F600 E477.21262
G1 Z0.525
G0 F10500 X94.129 Y40.491
;TYPE:SUPPORT
G1 Z0.425
G1 F600 E478.71262
G1 F900 X94.129 Y40.086 E478.72948
G0 F10500 X94.362 Y40.817
G1 F900 X104.886 Y40.817 E479.16768
G0 F10500 X104.125 Y40.691
G1 F900 X104.125 Y55.098 E479.76756
G0 F10500 X104.081 Y54.174
G0 X105.748 Y54.094
G0 X105.791 Y55.019
G1 F900 X105.791 Y41.381 E480.33541
G0 F10500 X105.610 Y42.287
G0 X106.786 Y42.602
G0 X107.457 Y42.400
G0 X107.457 Y41.475
G1 F900 X107.457 Y54.939 E480.89603
G0 F10500 X107.415 Y54.015
G0 X109.078 Y53.933
G0 X109.123 Y54.857
G1 F900 X109.123 Y41.852 E481.43753
G0 F10500 X108.470 Y42.505
G0 X108.788 Y42.958
G0 X110.789 Y43.000
G0 X110.789 Y42.075
G1 F900 X110.789 Y54.775 E481.96633
G0 F10500 X110.745 Y53.851
G0 X112.274 Y53.700
G0 X112.455 Y54.608
G1 F900 X112.455 Y42.257 E482.48060
G0 F10500 X112.340 Y43.173
G0 X114.044 Y43.514
G0 X114.123 Y42.483
G1 F900 X95.542 Y42.483 E483.25428
G0 F10500 X95.795 Y42.866
G1 F900 X95.795 Y38.136 E483.45122
G0 F10500 X94.928 Y39.151
G1 F900 X101.191 Y39.151 E483.71200
G0 F10500 X100.793 Y39.020
G1 F900 X100.793 Y55.799 E484.41065
G0 F10500 X100.609 Y55.811
G1 F900 X98.697 Y55.811 E484.49026
G0 F10500 X99.127 Y55.926
G1 F900 X99.127 Y38.675 E485.20855
G0 F10500 X99.169 Y39.600
G0 X98.081 Y39.522
G0 X97.047 Y38.894
G0 X97.461 Y38.068
G1 F900 X97.461 Y47.342 E485.59470
G0 F10500 X97.483 Y47.481
G1 F900 X145.040 Y47.481 E487.57488
G0 F10500 X144.109 Y48.209
G1 F900 X144.109 Y34.275 E488.15506
G0 F10500 X144.109 Y35.200
G0 X142.443 Y35.200
G0 X142.443 Y34.275
G1 F900 X142.443 Y49.123 E488.77330
G0 F10500 X142.263 Y49.147
G1 F900 X97.748 Y49.147 E490.62682
G0 F10500 X98.662 Y49.003
G0 X98.884 Y50.696
G0 X97.966 Y50.813
G1 F900 X137.058 Y50.813 E492.25453
G0 F10500 X137.445 Y50.690
G1 F900 X137.445 Y39.813 E492.70742
G0 F10500 X137.890 Y39.151
G1 F900 X144.840 Y39.151 E492.99681
G0 F10500 X143.915 Y39.505
G0 X142.797 Y39.049
G0 X142.813 Y38.816
G0 X144.115 Y37.485
G0 X145.040 Y37.485
G1 F900 X138.690 Y37.485 E493.26121
G0 F10500 X139.111 Y36.748
G1 F900 X139.111 Y50.209 E493.82170
G0 F10500 X138.818 Y49.332
G0 X136.013 Y50.213
G0 X135.367 Y50.745
G0 X135.779 Y51.573
G1 F900 X135.779 Y41.386 E494.24586
G0 F10500 X136.440 Y40.817
G1 F900 X145.490 Y40.817 E494.62269
G0 F10500 X145.775 Y41.103
G1 F900 X145.775 Y42.173 E494.66724
G0 F10500 X145.153 Y42.483
G1 F900 X132.039 Y42.483 E495.21328
G0 F10500 X132.447 Y42.280
G1 F900 X132.447 Y55.025 E495.74395
G0 F10500 X133.240 Y54.145
G1 F900 X98.412 Y54.145 E497.19412
G0 F10500 X99.325 Y53.991
G0 X99.088 Y52.370
G0 X98.169 Y52.479
G1 F900 X134.240 Y52.479 E498.69604
G0 F10500 X134.113 Y52.758
G1 F900 X134.113 Y42.213 E499.13512
G0 F10500 X134.408 Y43.102
G0 X133.545 Y43.402
G0 X131.204 Y43.961
G0 X130.962 Y43.640
G0 X130.781 Y42.732
G1 F900 X130.781 Y55.725 E499.67612
G0 F10500 X130.781 Y54.800
G0 X129.245 Y54.496
G0 X129.115 Y55.411
G1 F900 X129.115 Y43.064 E500.19022
G0 F10500 X129.295 Y43.972
G0 X127.740 Y44.592
G0 X127.449 Y43.714
G1 F900 X127.449 Y55.121 E500.66518
G0 F10500 X127.630 Y54.215
G0 X127.054 Y53.668
G0 X125.763 Y53.736
G0 X125.783 Y54.662
G1 F900 X125.783 Y44.089 E501.10542
G0 F10500 X125.773 Y45.013
G0 X124.041 Y44.958
G0 X124.117 Y44.037
G1 F900 X124.117 Y54.699 E501.54937
G0 F10500 X124.096 Y53.773
G0 X122.451 Y53.800
G0 X122.451 Y54.725
G1 F900 X122.451 Y43.898 E502.00018
G0 F10500 X122.373 Y44.818
G0 X120.725 Y44.372
G0 X120.785 Y43.450
G1 F900 X120.785 Y54.725 E502.46965
G0 F10500 X120.785 Y53.800
G0 X119.798 Y53.225
G0 X118.968 Y54.032
G0 X119.119 Y54.945
G1 F900 X119.119 Y43.339 E502.95290
G0 F10500 X119.058 Y44.261
G0 X117.323 Y43.966
G0 X117.453 Y43.052
G1 F900 X117.453 Y55.125 E503.45559
G0 F10500 X117.453 Y54.200
G0 X116.012 Y54.018
G0 X115.787 Y54.914
G1 F900 X115.787 Y42.780 E503.96083
G0 F10500 X115.604 Y43.686
G0 X114.050 Y43.515
G0 X114.121 Y42.594
G1 F900 X114.121 Y54.725 E504.46594
G0 F10500 X114.121 Y53.800
G0 X113.923 Y53.506
G0 X102.559 Y54.276
G0 X102.047 Y54.704
G0 X102.459 Y55.532
G1 F900 X102.459 Y39.576 E505.13031
G0 F10500 X102.166 Y40.452
G0 X97.348 Y43.720
G0 X96.529 Y44.149
G1 F900 X145.040 Y44.149 E507.15021
G0 F10500 X144.115 Y44.149
G0 X144.115 Y45.815
G0 X145.040 Y45.815
G1 F900 X97.146 Y45.815 E509.14442
G0 F10500 X98.040 Y45.579
G0 X140.365 Y48.746
G0 X140.777 Y49.574
G1 F900 X140.777 Y34.880 E509.75625
G0 F10500 X139.840 Y35.819
G1 F900 X145.040 Y35.819 E509.97277
G1 F600 E508.47277
G1 Z0.525
G0 F10500 X142.443 Y127.761
G1 Z0.425
G1 F600 E509.97277
G1 F900 X142.443 Y143.099 E510.61141
G0 F10500 X142.152 Y142.221
G0 X141.430 Y142.066
G0 X140.777 Y142.719
G1 F900 X140.777 Y127.806 E511.23236
G0 F10500 X141.066 Y128.684
G0 X140.015 Y129.115
G0 X139.090 Y129.115
G1 F900 X144.440 Y129.115 E511.45512
G0 F10500 X144.109 Y128.388
G1 F900 X144.109 Y142.545 E512.04459
G0 F10500 X144.413 Y142.443
G1 F900 X112.300 Y142.443 E513.38171
G0 F10500 X112.455 Y142.481
G1 F900 X112.455 Y123.185 E514.18515
G0 F10500 X111.627 Y122.451
G1 F900 X95.900 Y122.451 E514.83999
G1 F600 E513.33999
G1 Z0.525
G0 F10500 X95.864 Y124.117
G1 Z0.425
G1 F600 E514.83999
G1 F900 X113.188 Y124.117 E515.56133
G0 F10500 X114.121 Y124.651
G1 F900 X114.121 Y142.813 E516.31756
G0 F10500 X114.252 Y141.898
G0 X115.619 Y142.000
G0 X115.787 Y142.917
G1 F900 X115.787 Y125.916 E517.02544
G0 F10500 X115.653 Y125.783
G1 F900 X95.416 Y125.783 E517.86807
G0 F10500 X95.795 Y124.393
G1 F900 X95.795 Y136.302 E518.36394
G0 F10500 X94.856 Y135.779
G1 F900 X144.840 Y135.779 E520.44517
G0 F10500 X143.915 Y135.779
G0 X143.831 Y136.786
G0 X144.115 Y137.445
G0 X145.040 Y137.445
G1 F900 X99.692 Y137.445 E522.33337
G0 F10500 X99.127 Y137.270
G1 F900 X99.127 Y116.305 E523.20631
G0 F10500 X98.715 Y117.132
G0 X98.278 Y117.703
G0 X97.461 Y117.271
G1 F900 X97.461 Y137.033 E524.02916
G0 F10500 X97.592 Y136.117
G0 X97.671 Y134.922
G0 X94.903 Y134.157
G0 X94.129 Y134.662
G1 F900 X94.129 Y132.812 E524.10619
G0 F10500 X94.411 Y132.447
G1 F900 X130.370 Y132.447 E525.60344
G0 F10500 X130.781 Y132.477
G1 F900 X130.781 Y142.897 E526.03731
G0 F10500 X130.762 Y141.971
G0 X132.429 Y141.936
G0 X132.447 Y142.862
G1 F900 X132.447 Y132.679 E526.46131
G0 F10500 X132.849 Y132.447
G1 F900 X144.820 Y132.447 E526.95976
G0 F10500 X145.775 Y132.925
G1 F900 X145.775 Y133.697 E526.99190
G0 F10500 X145.358 Y134.113
G1 F900 X93.768 Y134.113 E529.14001
G0 F10500 X94.575 Y133.655
G0 X96.116 Y131.652
G0 X96.185 Y131.027
G0 X95.293 Y130.781
G1 F900 X121.653 Y130.781 E530.23758
G0 F10500 X122.451 Y131.077
G1 F900 X122.451 Y142.886 E530.72928
G0 F10500 X122.743 Y142.010
G0 X124.117 Y142.200
G0 X124.117 Y143.125
G1 F900 X124.117 Y130.675 E531.24768
G0 F10500 X123.646 Y130.781
G1 F900 X125.283 Y130.781 E531.31584
G0 F10500 X125.783 Y130.949
G1 F900 X125.783 Y143.125 E531.82282
G0 F10500 X125.783 Y142.200
G0 X127.449 Y142.200
G0 X127.449 Y143.125
G1 F900 X127.449 Y131.663 E532.30008
G0 F10500 X127.036 Y132.489
G0 X128.143 Y133.302
G0 X129.049 Y133.279
G0 X129.115 Y132.358
G1 F900 X129.115 Y142.980 E532.74235
G1 F600 E531.24235
G1 Z0.525
G0 F10500 X134.113 Y143.954
G1 Z0.425
G1 F600 E532.74235
G1 F900 X134.113 Y132.075 E533.23697
G0 F10500 X134.113 Y133.000
G0 X135.779 Y133.000
G0 X135.779 Y132.075
G1 F900 X135.779 Y143.391 E533.70815
G0 F10500 X135.483 Y142.515
G0 X137.220 Y141.992
G0 X137.445 Y142.889
G1 F900 X137.445 Y131.213 E534.19431
G0 F10500 X137.927 Y132.038
G0 X138.566 Y132.860
G0 X139.456 Y132.641
G0 X140.099 Y131.586
G0 X140.015 Y130.781
G0 X139.090 Y130.781
G1 F900 X144.440 Y130.781 E534.41707
G0 F10500 X143.515 Y130.781
G0 X143.031 Y132.186
G0 X144.115 Y139.111
G0 X145.040 Y139.111
G1 F900 X106.568 Y139.111 E536.01897
G0 F10500 X105.791 Y138.708
G1 F900 X105.791 Y119.234 E536.82983
G0 F10500 X105.562 Y119.119
G1 F900 X96.477 Y119.119 E537.20811
G0 F10500 X97.286 Y119.568
G0 X98.182 Y117.885
G0 X97.366 Y117.453
G1 F900 X101.125 Y117.453 E537.36462
G0 F10500 X100.793 Y117.134
G1 F900 X100.793 Y137.994 E538.23319
G0 F10500 X101.207 Y137.168
G0 X102.543 Y137.306
G0 X102.459 Y138.226
G1 F900 X102.459 Y118.389 E539.05916
G0 F10500 X101.941 Y119.177
G0 X102.277 Y119.606
G0 X104.125 Y119.400
G0 X104.125 Y118.475
G1 F900 X104.125 Y138.431 E539.89009
G0 F10500 X104.277 Y137.520
G0 X106.729 Y137.836
G0 X107.749 Y138.545
G0 X107.457 Y139.421
G1 F900 X107.457 Y119.789 E540.70753
G0 F10500 X108.461 Y120.785
G1 F900 X96.219 Y120.785 E541.21726
G0 F10500 X97.081 Y121.120
G0 X96.819 Y124.526
G0 X96.155 Y127.351
G0 X95.234 Y127.449
G1 F900 X117.320 Y127.449 E542.13688
G0 F10500 X117.453 Y127.582
G1 F900 X117.453 Y143.026 E542.77993
G0 F10500 X117.432 Y142.058
G0 X119.112 Y141.596
G0 X119.119 Y142.522
G1 F900 X119.119 Y128.848 E543.34929
G0 F10500 X119.387 Y129.115
G1 F900 X95.480 Y129.115 E544.34473
G0 F10500 X96.402 Y129.179
G0 X108.869 Y122.019
G0 X109.123 Y121.130
G1 F900 X109.123 Y140.465 E545.14980
G0 F10500 X109.433 Y140.777
G1 F900 X109.569 Y140.777 E545.15546
G0 F10500 X110.789 Y140.531
G1 F900 X110.789 Y121.917 E545.93051
G0 F10500 X110.135 Y122.570
G0 X112.506 Y124.936
G0 X119.879 Y130.843
G0 X120.426 Y130.842
G0 X120.785 Y129.966
G1 F900 X120.785 Y142.508 E546.45273
G0 F10500 X120.778 Y141.582
G0 X139.092 Y141.795
G0 X139.111 Y142.722
G1 F900 X139.111 Y128.357 E547.05086
G0 F10500 X139.955 Y129.051
G0 X144.115 Y140.480
G0 X145.040 Y140.777
G1 F900 X111.033 Y140.777 E548.46684
;LAYER:1
M106 S191
G1 F600 E546.96684
G1 Z0.525
G0 F10500 X94.713 Y131.337 Z0.805
;TYPE:WALL-INNER
G1 Z0.805
G1 F600 E548.46684
G1 F1140 X94.316 Y131.930 E548.48810
G1 X93.847 Y132.517 E548.51048
G1 X93.464 Y132.910 E548.52682
G1 X93.351 Y133.009 E548.53129
G1 X92.603 Y133.520 E548.55827
G1 X92.145 Y133.865 E548.57535
G1 X91.537 Y134.382 E548.59912
G1 X91.062 Y134.680 E548.61582
G1 X90.497 Y134.998 E548.63513
G1 X89.965 Y135.262 E548.65282
G1 X89.405 Y135.509 E548.67105
G1 X88.675 Y135.721 E548.69369
G1 X88.003 Y135.930 E548.71465
G1 X87.270 Y136.146 E548.73741
G1 X86.593 Y136.355 E548.75851
G1 X85.552 Y136.664 E548.79085
G1 X84.806 Y136.823 E548.81357
G1 X83.966 Y137.070 E548.83965
G1 X83.357 Y137.200 E548.85819
G1 X82.030 Y137.360 E548.89800
G1 X81.399 Y137.412 E548.91686
G1 X81.140 Y137.420 E548.92458
G1 X80.799 Y137.459 E548.93480
G1 X79.758 Y137.427 E548.96582
G1 X78.900 Y137.399 E548.99139
G1 X77.827 Y137.284 E549.02353
G1 X76.897 Y137.205 E549.05133
G1 X76.270 Y137.201 E549.07000
G1 X75.908 Y137.212 E549.08079
G1 X75.338 Y137.300 E549.09796
G1 X75.063 Y137.359 E549.10634
G1 X74.490 Y137.556 E549.12439
G1 X74.243 Y137.655 E549.13231
G1 X73.691 Y138.002 E549.15173
G1 X72.871 Y138.608 E549.18210
G1 X72.383 Y138.948 E549.19981
G1 X71.596 Y139.304 E549.22554
G1 X70.858 Y139.649 E549.24980
G1 X70.443 Y139.854 E549.26359
G1 X69.655 Y140.334 E549.29107
G1 X68.958 Y140.882 E549.31748
G1 X68.696 Y141.112 E549.32786
G1 X68.314 Y141.623 E549.34686
G1 X68.261 Y141.782 E549.35185
G1 X68.111 Y142.033 E549.36056
G1 X67.879 Y142.533 E549.37698
G1 X67.413 Y143.251 E549.40247
G1 X67.087 Y143.648 E549.41777
G1 X67.012 Y143.715 E549.42077
G1 X66.887 Y143.869 E549.42668
G1 X66.740 Y144.010 E549.43274
G1 X66.251 Y144.358 E549.45062
G1 X65.528 Y144.935 E549.47817
G1 X65.058 Y145.313 E549.49613
G1 X64.934 Y145.423 E549.50107
G1 X64.387 Y145.783 E549.52057
G1 X63.827 Y146.338 E549.54405
G1 X63.686 Y146.489 E549.55021
G1 X63.474 Y146.628 E549.55776
G1 X63.147 Y146.963 E549.57170
G1 X63.057 Y147.033 E549.57510
G1 X62.473 Y147.406 E549.59573
G1 X61.780 Y148.028 E549.62347
G1 X61.385 Y148.276 E549.63736
G1 X60.847 Y148.695 E549.65767
G1 X60.402 Y148.958 E549.67306
G1 X59.523 Y149.224 E549.70042
G1 X58.555 Y149.368 E549.72956
G1 X57.738 Y149.463 E549.75406
G1 X57.120 Y149.561 E549.77270
G1 X56.288 Y149.657 E549.79764
G1 X55.965 Y149.692 E549.80732
G1 X55.306 Y149.675 E549.82695
G1 X54.740 Y149.610 E549.84392
G1 X54.010 Y149.437 E549.86626
G1 X53.509 Y149.308 E549.88167
G1 X52.850 Y149.141 E549.90192
G1 X52.037 Y148.916 E549.92704
G1 X51.188 Y148.674 E549.95334
G1 X50.573 Y148.473 E549.97261
G1 X50.110 Y148.285 E549.98749
G1 X49.016 Y147.741 E550.02388
G1 X48.199 Y147.315 E550.05132
G1 X47.604 Y147.070 E550.07049
G1 X46.202 Y146.434 E550.11634
G1 X45.632 Y146.169 E550.13506
G1 X44.605 Y145.672 E550.16904
G1 X43.803 Y145.225 E550.19639
G1 X43.388 Y144.983 E550.21069
G1 X42.985 Y144.699 E550.22538
G1 X42.131 Y144.050 E550.25732
G1 X41.352 Y143.352 E550.28848
G1 X40.635 Y142.601 E550.31940
G1 X39.969 Y141.721 E550.35227
G1 X39.549 Y141.133 E550.37379
G1 X38.809 Y140.299 E550.40700
G1 X38.170 Y139.495 E550.43759
G1 X37.813 Y138.892 E550.45846
G1 X37.780 Y138.839 E550.46032
G1 X37.604 Y138.356 E550.47563
G1 X37.255 Y137.561 E550.50149
G1 X36.977 Y136.980 E550.52067
G1 X36.669 Y136.121 E550.54785
G1 X36.203 Y134.854 E550.58806
G1 X36.013 Y134.304 E550.60539
G1 X35.850 Y133.708 E550.62379
G1 X35.683 Y133.007 E550.64525
G1 X35.572 Y132.433 E550.66266
G1 X35.365 Y130.960 E550.70697
G1 X35.340 Y130.772 E550.71261
G1 X35.316 Y130.170 E550.73056
G1 X35.313 Y130.085 E550.73309
G1 X35.364 Y129.046 E550.76407
G1 X35.508 Y127.301 E550.81622
G1 X35.585 Y126.766 E550.83232
G1 X35.843 Y125.394 E550.87390
G1 X36.154 Y124.276 E550.90846
G1 X36.300 Y123.803 E550.92320
G1 X36.654 Y122.865 E550.95307
G1 X37.005 Y122.077 E550.97876
G1 X37.600 Y120.916 E551.01761
G1 X38.492 Y119.457 E551.06854
G1 X39.399 Y118.240 E551.11375
G1 X39.691 Y117.865 E551.12790
G1 X40.528 Y116.945 E551.16495
G1 X41.070 Y116.538 E551.18514
G1 X41.692 Y116.024 E551.20917
G1 X42.231 Y115.663 E551.22849
G1 X42.842 Y115.314 E551.24945
G1 X43.789 Y114.877 E551.28051
G1 X44.486 Y114.631 E551.30252
G1 X45.496 Y114.329 E551.33392
G1 X46.160 Y114.171 E551.35425
G1 X46.640 Y114.075 E551.36883
G1 X48.423 Y113.927 E551.42211
G1 X49.304 Y113.876 E551.44840
G1 X51.021 Y113.794 E551.49959
G1 X52.494 Y113.650 E551.54367
G1 X53.086 Y113.532 E551.56165
G1 X53.493 Y113.434 E551.57412
G1 X53.838 Y113.273 E551.58546
G1 X54.026 Y113.209 E551.59137
G1 X54.223 Y113.107 E551.59798
G1 X54.706 Y112.741 E551.61603
G1 X54.913 Y112.593 E551.62361
G1 X55.509 Y111.948 E551.64977
G1 X55.881 Y111.338 E551.67104
G1 X56.036 Y110.831 E551.68684
G1 X56.064 Y110.234 E551.70464
G1 X56.007 Y109.928 E551.71391
G1 X55.951 Y109.294 E551.73286
G1 X55.755 Y108.614 E551.75394
G1 X55.558 Y107.770 E551.77975
G1 X55.394 Y107.014 E551.80279
G1 X55.276 Y106.380 E551.82200
G1 X55.127 Y104.965 E551.86438
G1 X55.119 Y104.390 E551.88150
G1 X55.108 Y104.201 E551.88714
G1 X55.112 Y103.953 E551.89453
G1 X55.025 Y102.427 E551.94005
G1 X54.990 Y101.923 E551.95510
G1 X54.991 Y101.387 E551.97106
G1 X54.991 Y100.902 E551.98551
G1 X54.970 Y100.876 E551.98650
G1 X54.953 Y99.924 E552.01486
G1 X54.955 Y99.779 E552.01918
G1 X54.954 Y99.622 E552.02386
G1 X54.997 Y98.171 E552.06709
G1 X55.004 Y97.422 E552.08940
G1 X55.053 Y95.622 E552.14303
G1 X55.153 Y94.597 E552.17370
G1 X55.291 Y93.389 E552.20991
G1 X55.396 Y91.573 E552.26409
G1 X55.412 Y91.111 E552.27786
G1 X55.294 Y90.201 E552.30519
G1 X55.261 Y89.587 E552.32350
G1 X55.126 Y88.620 E552.35258
G1 X55.103 Y87.927 E552.37323
G1 X55.077 Y87.102 E552.39782
G1 X55.052 Y86.996 E552.40106
G1 X55.085 Y86.435 E552.41780
G1 X55.135 Y86.006 E552.43066
G1 X55.139 Y85.865 E552.43486
G1 X55.242 Y84.845 E552.46540
G1 X55.261 Y84.716 E552.46928
G1 X55.222 Y84.410 E552.47847
G1 X55.240 Y84.042 E552.48944
G1 X55.238 Y83.912 E552.49331
G1 X55.273 Y83.731 E552.49880
G1 X55.313 Y82.947 E552.52218
G1 X55.365 Y82.548 E552.53417
G1 X55.350 Y82.362 E552.53973
G1 X55.372 Y81.822 E552.55582
G1 X55.405 Y81.464 E552.56653
G1 X55.405 Y81.306 E552.57124
G1 X55.462 Y80.888 E552.58380
G1 X55.456 Y80.510 E552.59506
G1 X55.387 Y79.840 E552.61512
G1 X55.291 Y78.984 E552.64078
G1 X55.145 Y78.284 E552.66207
G1 X55.142 Y78.224 E552.66386
G1 X55.089 Y78.028 E552.66991
G1 X55.009 Y77.811 E552.67680
G1 X54.784 Y76.984 E552.70232
G1 X54.569 Y76.515 E552.71769
G1 X54.502 Y76.307 E552.72420
G1 X54.390 Y76.106 E552.73105
G1 X53.804 Y74.840 E552.77260
G1 X53.747 Y74.640 E552.77879
G1 X53.718 Y74.360 E552.78718
G1 X53.691 Y74.305 E552.78900
G1 X53.692 Y74.234 E552.79112
G1 X53.614 Y73.977 E552.79912
G1 X53.534 Y73.836 E552.80394
G1 X53.541 Y73.760 E552.80622
G1 X53.043 Y72.708 E552.84088
G1 X52.193 Y71.295 E552.89000
G1 X51.805 Y70.629 E552.91295
G1 X51.699 Y70.443 E552.91933
G1 X51.491 Y69.980 E552.93444
G1 X51.277 Y69.449 E552.95150
G1 X51.122 Y69.048 E552.96430
G1 X50.965 Y68.444 E552.98289
G1 X50.912 Y68.281 E552.98799
G1 X50.772 Y67.549 E553.01019
G1 X50.700 Y67.000 E553.02668
G1 X50.568 Y65.594 E553.06874
G1 X50.493 Y64.960 E553.08775
G1 X50.385 Y64.272 E553.10850
G1 X50.196 Y63.478 E553.13280
G1 X50.013 Y62.972 E553.14883
G1 X49.809 Y62.580 E553.16199
G1 X49.470 Y62.062 E553.18043
G1 X49.023 Y61.567 E553.20029
G1 X48.540 Y61.103 E553.22024
G1 X48.187 Y60.788 E553.23433
G1 X47.460 Y60.276 E553.26082
G1 X46.176 Y59.508 E553.30538
G1 X45.098 Y58.779 E553.34413
G1 X44.624 Y58.396 E553.36228
G1 X44.144 Y57.955 E553.38170
G1 X43.572 Y57.514 E553.40321
G1 X42.667 Y56.780 E553.43791
G1 X42.497 Y56.642 E553.44444
G1 X41.831 Y56.279 E553.46703
G1 X40.728 Y55.813 E553.50269
G1 X39.699 Y55.398 E553.53574
G1 X38.670 Y54.940 E553.56928
G1 X37.939 Y54.545 E553.59403
G1 X37.191 Y54.074 E553.62035
G1 X36.759 Y53.796 E553.63565
G1 X36.031 Y53.311 E553.66171
G1 X35.138 Y52.759 E553.69298
G1 X34.325 Y52.313 E553.72059
G1 X33.709 Y51.969 E553.74161
G1 X33.051 Y51.540 E553.76500
G1 X32.545 Y51.213 E553.78295
G1 X31.525 Y50.473 E553.82048
G1 X30.551 Y49.655 E553.85836
G1 X29.703 Y48.921 E553.89176
G1 X28.558 Y47.852 E553.93842
G1 X27.663 Y47.031 E553.97459
G1 X27.122 Y46.489 E553.99740
G1 X26.732 Y46.062 E554.01462
G1 X25.907 Y45.114 E554.05205
G1 X25.558 Y44.656 E554.06920
G1 X25.357 Y44.365 E554.07973
G1 X24.979 Y43.566 E554.10606
G1 X24.429 Y42.317 E554.14671
G1 X24.323 Y42.036 E554.15565
G1 X24.168 Y41.482 E554.17278
G1 X23.713 Y39.963 E554.22001
G1 X23.447 Y38.675 E554.25918
G1 X23.235 Y37.399 E554.29771
G1 X23.153 Y36.601 E554.32160
G1 X23.088 Y35.959 E554.34082
G1 X22.983 Y34.902 E554.37245
G1 X22.959 Y34.308 E554.39016
G1 X22.995 Y32.857 E554.43339
G1 X23.030 Y32.297 E554.45010
G1 X23.088 Y31.833 E554.46403
G1 X23.243 Y31.234 E554.48245
G1 X23.606 Y30.342 E554.51114
G1 X23.803 Y29.735 E554.53014
G1 X24.118 Y28.791 E554.55978
G1 X24.219 Y28.507 E554.56876
G1 X24.431 Y28.089 E554.58272
G1 X24.938 Y27.272 E554.61136
G1 X25.314 Y26.597 E554.63437
G1 X25.633 Y25.925 E554.65652
G1 X25.867 Y25.476 E554.67160
G1 X25.927 Y25.363 E554.67541
G1 X26.671 Y24.400 E554.71166
G1 X27.222 Y23.678 E554.73871
G1 X27.827 Y22.796 E554.77056
G1 X28.132 Y22.347 E554.78673
G1 X28.777 Y21.441 E554.81985
G1 X29.114 Y21.030 E554.83568
G1 X29.685 Y20.397 E554.86107
G1 X30.274 Y19.901 E554.88401
G1 X31.091 Y19.358 E554.91322
G1 X31.621 Y19.112 E554.93063
G1 X31.702 Y19.077 E554.93326
G1 X32.357 Y18.915 E554.95335
G1 X33.505 Y18.594 E554.98885
G1 X33.809 Y18.488 E554.99844
G1 X34.252 Y18.212 E555.01399
G1 X34.601 Y17.911 E555.02771
G1 X34.951 Y17.505 E555.04368
G1 X35.335 Y16.913 E555.06470
G1 X35.869 Y15.752 E555.10276
G1 X36.265 Y14.875 E555.13142
G1 X36.776 Y13.810 E555.16660
G1 X37.220 Y12.806 E555.19929
G1 X37.530 Y12.122 E555.22166
G1 X38.246 Y10.813 E555.26610
G1 X38.631 Y9.937 E555.29460
G1 X38.929 Y9.453 E555.31152
G1 X39.041 Y9.281 E555.31764
G1 X39.055 Y9.229 E555.31924
G1 X39.132 Y9.100 E555.32372
G1 X39.305 Y8.182 E555.35154
G1 X39.520 Y7.534 E555.37187
G1 X39.851 Y6.919 E555.39267
G1 X40.137 Y6.497 E555.40786
G1 X40.225 Y6.426 E555.41122
G1 X40.453 Y6.320 E555.41871
G1 X40.478 Y6.317 E555.41946
G1 X40.585 Y6.318 E555.42265
G1 X41.099 Y6.377 E555.43806
G1 X41.130 Y6.378 E555.43898
G1 X41.677 Y6.463 E555.45547
G1 X42.401 Y6.629 E555.47759
G1 X42.583 Y6.660 E555.48309
G1 X42.906 Y6.759 E555.49315
G1 X43.305 Y6.965 E555.50653
G1 X43.766 Y7.308 E555.52364
G1 X43.923 Y7.572 E555.53279
G1 X44.149 Y7.762 E555.54158
G1 X44.328 Y7.975 E555.54987
G1 X44.855 Y8.139 E555.56631
G1 X45.102 Y8.241 E555.57427
G1 X45.621 Y8.608 E555.59320
G1 X45.750 Y8.826 E555.60074
G1 X45.828 Y9.624 E555.62462
G1 X46.029 Y10.336 E555.64666
G1 X46.216 Y10.665 E555.65793
G1 X46.245 Y10.789 E555.66172
G1 X46.539 Y11.290 E555.67902
G1 X47.063 Y11.733 E555.69946
G1 X47.307 Y11.774 E555.70683
G1 X47.722 Y11.927 E555.72000
G1 X48.356 Y11.954 E555.73890
G1 X48.726 Y11.953 E555.74992
G1 X48.895 Y11.999 E555.75514
G1 X49.016 Y12.106 E555.75995
G1 X49.074 Y12.211 E555.76352
G1 X49.156 Y12.295 E555.76702
G1 X49.310 Y12.542 E555.77569
G1 X49.672 Y13.025 E555.79366
G1 X50.156 Y13.821 E555.82141
G1 X50.308 Y14.230 E555.83440
G1 X50.541 Y15.058 E555.86002
G1 X50.606 Y15.375 E555.86966
G1 X50.675 Y16.153 E555.89292
G1 X50.925 Y17.118 E555.92261
G1 X51.132 Y17.632 E555.93912
G1 X51.303 Y18.111 E555.95426
G1 X51.679 Y18.716 E555.97548
G1 X51.958 Y19.339 E555.99581
G1 X52.474 Y20.010 E556.02102
G1 X52.740 Y20.269 E556.03208
G1 X53.328 Y20.738 E556.05448
G1 X53.895 Y21.212 E556.07649
G1 X54.254 Y21.548 E556.09114
G1 X54.883 Y22.228 E556.11872
G1 X55.270 Y22.695 E556.13679
G1 X55.660 Y23.205 E556.15591
G1 X55.937 Y23.628 E556.17097
G1 X56.402 Y24.229 E556.19360
G1 X56.866 Y24.708 E556.21346
G1 X57.382 Y25.084 E556.23248
G1 X58.116 Y25.492 E556.25749
G1 X58.697 Y25.771 E556.27669
G1 X59.898 Y26.103 E556.31380
G1 X60.692 Y26.317 E556.33829
G1 X61.424 Y26.456 E556.36048
G1 X62.209 Y26.672 E556.38473
G1 X62.418 Y26.691 E556.39098
G1 X62.825 Y26.845 E556.40394
G1 X63.323 Y26.973 E556.41925
G1 X64.265 Y27.141 E556.44775
G1 X65.176 Y27.400 E556.47596
G1 X65.691 Y27.464 E556.49142
G1 X66.105 Y27.566 E556.50412
G1 X66.152 Y27.569 E556.50552
G1 X66.701 Y27.688 E556.52225
G1 X67.401 Y27.851 E556.54366
G1 X67.438 Y27.853 E556.54476
G1 X67.929 Y28.020 E556.56021
G1 X68.228 Y28.120 E556.56960
G1 X68.618 Y28.307 E556.58248
G1 X68.940 Y28.419 E556.59263
G1 X69.135 Y28.563 E556.59985
G1 X69.246 Y28.604 E556.60338
G1 X69.933 Y29.004 E556.62705
G1 X70.519 Y29.332 E556.64705
G1 X71.331 Y29.658 E556.67311
G1 X71.866 Y29.859 E556.69013
G1 X72.629 Y30.098 E556.71395
G1 X73.308 Y30.250 E556.73467
G1 X74.016 Y30.369 E556.75605
G1 X74.220 Y30.379 E556.76214
G1 X74.910 Y30.487 E556.78294
G1 X75.854 Y30.595 E556.81124
G1 X75.968 Y30.620 E556.81471
G1 X76.038 Y30.624 E556.81680
G1 X76.609 Y30.723 E556.83406
G1 X77.164 Y30.851 E556.85102
G1 X78.005 Y31.050 E556.87676
G1 X78.327 Y31.136 E556.88669
G1 X79.190 Y31.235 E556.91256
G1 X80.418 Y31.454 E556.94971
G1 X81.255 Y31.612 E556.97508
G1 X82.384 Y31.973 E557.01038
G1 X83.372 Y32.375 E557.04215
G1 X84.201 Y32.700 E557.06867
G1 X84.798 Y33.006 E557.08865
G1 X84.995 Y33.116 E557.09537
G1 X85.685 Y33.425 E557.11789
G1 X86.223 Y33.727 E557.13627
G1 X86.770 Y34.057 E557.15529
G1 X87.254 Y34.406 E557.17306
G1 X87.831 Y34.902 E557.19573
G1 X88.869 Y35.757 E557.23578
G1 X89.803 Y36.585 E557.27295
G1 X90.434 Y37.184 E557.29887
G1 X91.086 Y37.820 E557.32599
G1 X92.128 Y38.913 E557.37097
G1 X92.757 Y39.649 E557.39980
G1 X93.102 Y40.096 E557.41662
G1 X93.401 Y40.508 E557.43178
G1 X94.040 Y41.421 E557.46497
G1 X94.369 Y41.879 E557.48177
G1 X94.910 Y42.622 E557.50914
G1 X95.301 Y43.209 E557.53015
G1 X95.777 Y44.006 E557.55780
G1 X96.172 Y44.850 E557.58555
G1 X96.406 Y45.487 E557.60576
G1 X96.671 Y46.500 E557.63695
G1 X96.896 Y47.623 E557.67106
G1 X97.163 Y49.247 E557.72008
G1 X97.231 Y49.862 E557.73851
G1 X97.362 Y50.928 E557.77050
G1 X97.434 Y51.680 E557.79299
G1 X97.512 Y52.336 E557.81267
G1 X97.619 Y53.469 E557.84656
G1 X97.652 Y53.506 E557.84804
G1 X97.864 Y54.641 E557.88243
G1 X97.960 Y55.197 E557.89923
G1 X98.164 Y56.158 E557.92849
G1 X98.399 Y57.324 E557.96392
G1 X98.660 Y58.437 E557.99797
G1 X98.919 Y59.337 E558.02586
G1 X99.106 Y59.944 E558.04478
G1 X99.373 Y60.750 E558.07007
G1 X99.708 Y61.858 E558.10454
G1 X99.991 Y62.912 E558.13705
G1 X100.127 Y63.574 E558.15717
G1 X100.310 Y64.647 E558.18959
G1 X100.422 Y65.419 E558.21283
G1 X100.662 Y66.974 E558.25969
G1 X100.800 Y67.890 E558.28728
G1 X100.880 Y68.563 E558.30746
G1 X100.997 Y70.163 E558.35524
G1 X101.023 Y71.131 E558.38408
G1 X101.009 Y72.299 E558.41887
G1 X100.970 Y72.829 E558.43470
G1 X100.945 Y73.730 E558.46155
G1 X100.770 Y75.946 E558.52775
G1 X100.600 Y77.630 E558.57816
G1 X100.468 Y78.749 E558.61172
G1 X100.423 Y79.304 E558.62830
G1 X100.403 Y80.081 E558.65145
G1 X100.408 Y80.508 E558.66417
G1 X100.384 Y81.218 E558.68533
G1 X100.303 Y82.575 E558.72582
G1 X100.255 Y83.083 E558.74102
G1 X100.147 Y83.951 E558.76707
G1 X100.038 Y84.522 E558.78438
G1 X99.928 Y85.077 E558.80123
G1 X99.772 Y85.720 E558.82094
G1 X99.545 Y86.541 E558.84631
G1 X99.372 Y87.239 E558.86773
G1 X99.136 Y88.122 E558.89495
G1 X98.761 Y89.421 E558.93522
G1 X98.376 Y90.855 E558.97944
G1 X98.267 Y91.451 E558.99748
G1 X97.947 Y93.439 E559.05745
G1 X97.783 Y94.371 E559.08564
G1 X97.653 Y95.141 E559.10890
G1 X97.552 Y95.634 E559.12389
G1 X97.443 Y96.155 E559.13974
G1 X97.223 Y96.961 E559.16462
G1 X96.957 Y97.801 E559.19086
G1 X96.675 Y98.679 E559.21833
G1 X96.398 Y99.650 E559.24840
G1 X96.244 Y100.195 E559.26527
G1 X95.911 Y101.097 E559.29391
G1 X95.685 Y101.741 E559.31424
G1 X95.525 Y102.351 E559.33302
G1 X95.430 Y102.954 E559.35120
G1 X95.470 Y103.556 E559.36917
G1 X95.542 Y103.894 E559.37946
G1 X95.686 Y104.194 E559.38937
G1 X95.780 Y104.526 E559.39965
G1 X95.894 Y104.677 E559.40528
G1 X96.285 Y105.335 E559.42808
G1 X97.185 Y106.680 E559.47628
G1 X97.266 Y106.817 E559.48102
G1 X97.530 Y107.371 E559.49930
G1 X97.745 Y107.927 E559.51705
G1 X97.959 Y108.788 E559.54347
G1 X98.134 Y109.760 E559.57289
G1 X98.197 Y110.450 E559.59353
G1 X98.212 Y110.879 E559.60631
G1 X98.206 Y111.224 E559.61659
G1 X98.165 Y111.966 E559.63872
G1 X98.095 Y112.681 E559.66012
G1 X98.004 Y113.245 E559.67713
G1 X97.899 Y113.773 E559.69317
G1 X97.619 Y114.810 E559.72516
G1 X97.200 Y116.148 E559.76692
G1 X97.158 Y116.301 E559.77164
G1 X96.910 Y116.941 E559.79208
G1 X96.694 Y117.491 E559.80968
G1 X96.552 Y117.758 E559.81869
G1 X96.477 Y117.959 E559.82508
G1 X96.221 Y118.420 E559.84078
G1 X96.025 Y118.977 E559.85837
G1 X95.931 Y119.629 E559.87799
G1 X95.946 Y120.117 E559.89253
G1 X95.942 Y120.294 E559.89780
G1 X95.875 Y120.556 E559.90586
G1 X95.838 Y120.781 E559.91265
G1 X95.649 Y121.361 E559.93082
G1 X95.577 Y121.667 E559.94018
G1 X95.550 Y122.419 E559.96259
G1 X95.569 Y122.778 E559.97330
G1 X95.599 Y122.989 E559.97965
G1 X95.578 Y123.519 E559.99544
G1 X95.312 Y124.830 E560.03529
G1 X95.238 Y125.264 E560.04840
G1 X95.094 Y125.820 E560.06550
G1 X94.963 Y126.538 E560.08724
G1 X94.935 Y126.948 E560.09948
G1 X95.072 Y128.124 E560.13474
G1 X95.165 Y128.594 E560.14901
G1 X95.163 Y129.667 E560.18097
G1 X95.113 Y130.233 E560.19789
G1 X95.068 Y130.514 E560.20637
G1 X94.907 Y130.986 E560.22122
G1 X94.713 Y131.337 E560.23317
G0 F10500 X95.143 Y131.593
;TYPE:WALL-OUTER
G1 F1080 X94.715 Y132.233 E560.25610
G1 X94.229 Y132.842 E560.27930
G1 X93.798 Y133.282 E560.29765
G1 X93.659 Y133.404 E560.30316
G1 X92.895 Y133.926 E560.33072
G1 X92.458 Y134.256 E560.34703
G1 X91.832 Y134.786 E560.37145
G1 X91.330 Y135.102 E560.38912
G1 X90.719 Y135.447 E560.41002
G1 X90.183 Y135.712 E560.42783
G1 X89.575 Y135.980 E560.44762
G1 X88.819 Y136.200 E560.47107
G1 X88.144 Y136.409 E560.49211
G1 X87.415 Y136.625 E560.51476
G1 X86.743 Y136.832 E560.53570
G1 X85.671 Y137.150 E560.56900
G1 X84.929 Y137.308 E560.59160
G1 X84.091 Y137.554 E560.61761
G1 X83.439 Y137.694 E560.63747
G1 X82.918 Y137.745 E560.65306
G1 X82.063 Y137.860 E560.67876
G1 X81.436 Y137.911 E560.69749
G1 X81.177 Y137.919 E560.70521
G1 X80.820 Y137.961 E560.71592
G1 X79.759 Y137.927 E560.74753
G1 X79.732 Y137.928 E560.74834
G1 X78.872 Y137.898 E560.77397
G1 X77.779 Y137.782 E560.80670
G1 X76.874 Y137.705 E560.83375
G1 X76.276 Y137.701 E560.85156
G1 X75.954 Y137.711 E560.86116
G1 X75.429 Y137.792 E560.87698
G1 X75.197 Y137.842 E560.88405
G1 X74.665 Y138.025 E560.90081
G1 X74.471 Y138.102 E560.90702
G1 X73.973 Y138.415 E560.92454
G1 X73.164 Y139.013 E560.95450
G1 X72.633 Y139.383 E560.97378
G1 X71.805 Y139.758 E561.00085
G1 X71.075 Y140.100 E561.02486
G1 X70.684 Y140.293 E561.03785
G1 X69.940 Y140.745 E561.06377
G1 X69.278 Y141.267 E561.08888
G1 X69.065 Y141.453 E561.09731
G1 X68.763 Y141.858 E561.11235
G1 X68.719 Y141.990 E561.11650
G1 X68.554 Y142.267 E561.12610
G1 X68.316 Y142.778 E561.14289
G1 X67.820 Y143.544 E561.17007
G1 X67.450 Y143.994 E561.18742
G1 X67.375 Y144.061 E561.19041
G1 X67.256 Y144.209 E561.19607
G1 X67.060 Y144.396 E561.20414
G1 X66.552 Y144.757 E561.22270
G1 X65.841 Y145.325 E561.24980
G1 X65.381 Y145.696 E561.26740
G1 X65.238 Y145.822 E561.27308
G1 X64.704 Y146.173 E561.29211
G1 X64.186 Y146.687 E561.31385
G1 X64.022 Y146.861 E561.32097
G1 X63.788 Y147.022 E561.32943
G1 X63.475 Y147.341 E561.34274
G1 X63.345 Y147.443 E561.34766
G1 X62.776 Y147.805 E561.36775
G1 X62.083 Y148.428 E561.39550
G1 X61.672 Y148.686 E561.40995
G1 X61.087 Y149.140 E561.43201
G1 X61.062 Y149.148 E561.43279
G1 X60.603 Y149.421 E561.44869
G1 X59.633 Y149.713 E561.47886
G1 X58.620 Y149.864 E561.50937
G1 X57.807 Y149.958 E561.53374
G1 X57.195 Y150.056 E561.55220
G1 X56.341 Y150.155 E561.57781
G1 X55.983 Y150.193 E561.58853
G1 X55.270 Y150.174 E561.60977
G1 X54.661 Y150.104 E561.62803
G1 X53.895 Y149.924 E561.65147
G1 X52.726 Y149.625 E561.68741
G1 X51.915 Y149.401 E561.71246
G1 X51.033 Y149.149 E561.73978
G1 X50.400 Y148.942 E561.75962
G1 X49.896 Y148.737 E561.77582
G1 X48.798 Y148.191 E561.81235
G1 X47.988 Y147.768 E561.83956
G1 X47.400 Y147.526 E561.85850
G1 X45.995 Y146.889 E561.90445
G1 X45.410 Y146.617 E561.92366
G1 X44.371 Y146.114 E561.95804
G1 X43.564 Y145.664 E561.98556
G1 X43.106 Y145.397 E562.00135
G1 X42.696 Y145.108 E562.01629
G1 X41.815 Y144.438 E562.04925
G1 X41.018 Y143.724 E562.08112
G1 X40.744 Y143.464 E562.09237
G1 X40.250 Y142.921 E562.11424
G1 X39.570 Y142.023 E562.14779
G1 X39.158 Y141.445 E562.16893
G1 X38.435 Y140.631 E562.20135
G1 X37.787 Y139.818 E562.23232
G1 X37.741 Y139.766 E562.23438
G1 X37.385 Y139.151 E562.25555
G1 X37.328 Y139.060 E562.25875
G1 X37.140 Y138.542 E562.27516
G1 X36.800 Y137.770 E562.30028
G1 X36.516 Y137.174 E562.31995
G1 X36.395 Y136.870 E562.32969
G1 X36.198 Y136.288 E562.34799
G1 X35.734 Y135.027 E562.38801
G1 X35.535 Y134.455 E562.40605
G1 X35.363 Y133.824 E562.42553
G1 X35.196 Y133.123 E562.44699
G1 X35.077 Y132.509 E562.46562
G1 X34.871 Y131.037 E562.50989
G1 X34.812 Y130.081 E562.53841
G1 X34.865 Y129.021 E562.57002
G1 X35.012 Y127.233 E562.62345
G1 X35.094 Y126.673 E562.64031
G1 X35.356 Y125.279 E562.68256
G1 X35.676 Y124.129 E562.71811
G1 X35.829 Y123.633 E562.73357
G1 X36.191 Y122.676 E562.76404
G1 X36.556 Y121.857 E562.79075
G1 X37.165 Y120.668 E562.83053
G1 X38.076 Y119.179 E562.88252
G1 X39.004 Y117.933 E562.92879
G1 X39.307 Y117.543 E562.94350
G1 X40.188 Y116.575 E562.98249
G1 X40.761 Y116.145 E563.00382
G1 X41.388 Y115.627 E563.02805
G1 X41.971 Y115.236 E563.04895
G1 X42.613 Y114.869 E563.07098
G1 X43.597 Y114.415 E563.10325
G1 X44.335 Y114.155 E563.12656
G1 X45.375 Y113.843 E563.15890
G1 X46.059 Y113.681 E563.17983
G1 X46.442 Y113.602 E563.19148
G1 X47.074 Y113.524 E563.21045
G1 X48.394 Y113.427 E563.24987
G1 X49.275 Y113.377 E563.27615
G1 X50.985 Y113.295 E563.32714
G1 X52.421 Y113.155 E563.37011
G1 X52.979 Y113.043 E563.38706
G1 X53.327 Y112.959 E563.39772
G1 X53.651 Y112.809 E563.40835
G1 X53.830 Y112.748 E563.41399
G1 X53.955 Y112.683 E563.41818
G1 X54.407 Y112.340 E563.43508
G1 X54.581 Y112.216 E563.44144
G1 X55.102 Y111.652 E563.46431
G1 X55.424 Y111.124 E563.48273
G1 X55.539 Y110.745 E563.49453
G1 X55.562 Y110.269 E563.50872
G1 X55.511 Y109.992 E563.51711
G1 X55.457 Y109.386 E563.53523
G1 X55.271 Y108.741 E563.55522
G1 X55.071 Y107.884 E563.58143
G1 X54.907 Y107.127 E563.60450
G1 X54.779 Y106.436 E563.62543
G1 X54.628 Y104.995 E563.66859
G1 X54.619 Y104.409 E563.68604
G1 X54.607 Y104.204 E563.69216
G1 X54.612 Y103.962 E563.69937
G1 X54.526 Y102.458 E563.74423
G1 X54.490 Y101.945 E563.75955
G1 X54.491 Y101.082 E563.78525
G1 X54.471 Y101.058 E563.78618
G1 X54.453 Y99.944 E563.81937
G1 X54.455 Y99.778 E563.82431
G1 X54.454 Y99.607 E563.82940
G1 X54.497 Y98.161 E563.87249
G1 X54.504 Y97.409 E563.89489
G1 X54.553 Y95.601 E563.94876
G1 X54.657 Y94.536 E563.98063
G1 X54.792 Y93.346 E564.01630
G1 X54.897 Y91.550 E564.06988
G1 X54.911 Y91.135 E564.08225
G1 X54.797 Y90.252 E564.10876
G1 X54.763 Y89.635 E564.12717
G1 X54.626 Y88.659 E564.15652
G1 X54.579 Y87.168 E564.20095
G1 X54.548 Y87.040 E564.20487
G1 X54.587 Y86.392 E564.22421
G1 X54.636 Y85.969 E564.23689
G1 X54.640 Y85.842 E564.24067
G1 X54.749 Y84.760 E564.27306
G1 X54.756 Y84.711 E564.27454
G1 X54.721 Y84.431 E564.28294
G1 X54.740 Y84.035 E564.29475
G1 X54.737 Y83.867 E564.29975
G1 X54.776 Y83.670 E564.30573
G1 X54.816 Y82.894 E564.32888
G1 X54.862 Y82.536 E564.33963
G1 X54.849 Y82.381 E564.34426
G1 X54.874 Y81.776 E564.36229
G1 X54.905 Y81.441 E564.37231
G1 X54.905 Y81.275 E564.37726
G1 X54.961 Y80.858 E564.38979
G1 X54.957 Y80.539 E564.39929
G1 X54.890 Y79.893 E564.41863
G1 X54.797 Y79.063 E564.44351
G1 X54.648 Y78.347 E564.46529
G1 X54.645 Y78.304 E564.46657
G1 X54.312 Y77.155 E564.50220
G1 X54.103 Y76.699 E564.51714
G1 X54.041 Y76.507 E564.52315
G1 X53.943 Y76.330 E564.52918
G1 X53.333 Y75.012 E564.57243
G1 X53.255 Y74.741 E564.58083
G1 X53.230 Y74.501 E564.58802
G1 X53.189 Y74.418 E564.59078
G1 X53.191 Y74.305 E564.59414
G1 X53.151 Y74.175 E564.59819
G1 X53.023 Y73.947 E564.60598
G1 X53.032 Y73.839 E564.60921
G1 X52.606 Y72.951 E564.63854
G1 X51.764 Y71.553 E564.68715
G1 X51.373 Y70.880 E564.71033
G1 X51.252 Y70.669 E564.71757
G1 X51.039 Y70.193 E564.73311
G1 X50.814 Y69.636 E564.75100
G1 X50.645 Y69.202 E564.76487
G1 X50.485 Y68.585 E564.78385
G1 X50.427 Y68.407 E564.78943
G1 X50.277 Y67.620 E564.81329
G1 X50.204 Y67.065 E564.82996
G1 X50.071 Y65.647 E564.87238
G1 X49.998 Y65.028 E564.89094
G1 X49.894 Y64.369 E564.91081
G1 X49.716 Y63.621 E564.93371
G1 X49.554 Y63.173 E564.94790
G1 X49.377 Y62.833 E564.95932
G1 X49.073 Y62.368 E564.97587
G1 X48.664 Y61.915 E564.99404
G1 X48.200 Y61.470 E565.01319
G1 X47.876 Y61.180 E565.02614
G1 X47.187 Y60.696 E565.05122
G1 X45.910 Y59.932 E565.09554
G1 X44.807 Y59.186 E565.13520
G1 X44.300 Y58.777 E565.15460
G1 X43.821 Y58.338 E565.17395
G1 X43.267 Y57.910 E565.19480
G1 X42.217 Y57.058 E565.23507
G1 X41.614 Y56.730 E565.25552
G1 X40.537 Y56.275 E565.29034
G1 X39.496 Y55.854 E565.32378
G1 X38.447 Y55.389 E565.35796
G1 X37.694 Y54.981 E565.38347
G1 X36.918 Y54.493 E565.41077
G1 X36.492 Y54.219 E565.42585
G1 X35.761 Y53.732 E565.45201
G1 X34.886 Y53.191 E565.48265
G1 X34.084 Y52.751 E565.50990
G1 X33.448 Y52.396 E565.53159
G1 X32.273 Y51.633 E565.57332
G1 X31.220 Y50.869 E565.61207
G1 X30.811 Y50.544 E565.62762
G1 X29.374 Y49.297 E565.68429
G1 X28.219 Y48.219 E565.73135
